assets/luts/haut_neutral.cube
TITLE "Haut Neutral"
# Sicherer Grundlook. Haut bleibt Haut, nur sauberer: eine Spur Waerme, Kontrast im Mittelton, Schatten leicht kuehl. Nimm den, wenn du nicht weisst, welchen du nehmen sollst.
# erzeugt von tools/make_lut.py aus assets/luts/looks.json (haut_neutral)
LUT_3D_SIZE 5
DOMAIN_MIN 0.0 0.0 0.0
DOMAIN_MAX 1.0 1.0 1.0
0.001444 0.009255 0.023759
0.232273 0.007976 0.020991
0.543353 0.006457 0.017585
0.822319 0.005141 0.014606
1.000000 0.004248 0.012478
0.000000 0.234058 0.014071
0.230817 0.232564 0.011735
0.538992 0.231651 0.012732
0.816522 0.230908 0.009960
1.000000 0.230265 0.007790
0.000000 0.538785 0.001682
0.228121 0.537469 0.000000
0.541340 0.535593 0.000000
0.818697 0.534516 0.000484
1.000000 0.534333 0.001120
0.000000 0.814423 0.000000
0.226232 0.813213 0.000000
0.539767 0.811603 0.000000
0.820641 0.810062 0.000000
1.000000 0.809253 0.000000
0.000000 1.000000 0.000000
0.225433 1.000000 0.000000
0.539071 1.000000 0.000000
0.820363 1.000000 0.000000
1.000000 1.000000 0.000000
0.001186 0.008737 0.250324
0.233040 0.007179 0.247444
0.545899 0.005209 0.243448
0.825897 0.003653 0.239978
1.000000 0.002663 0.237583
0.000000 0.233572 0.240710
0.230612 0.232125 0.237960
0.542927 0.230461 0.234390
0.822247 0.229213 0.231521
1.000000 0.228404 0.229512
0.000000 0.538343 0.228372
0.226875 0.537460 0.224644
0.541339 0.535312 0.222046
0.818090 0.534447 0.225188
1.000000 0.534266 0.224295
0.000000 0.814028 0.217923
0.224759 0.813355 0.214107
0.539078 0.811564 0.210662
0.820724 0.809856 0.209765
1.000000 0.809032 0.212699
0.000000 1.000000 0.210774
0.223893 1.000000 0.207015
0.538173 1.000000 0.203762
0.820059 1.000000 0.201330
1.000000 1.000000 0.201503
0.000836 0.008043 0.557491
0.232661 0.006509 0.554639
0.545731 0.004492 0.550749
0.826430 0.002749 0.547289
1.000000 0.001588 0.544816
0.000000 0.232914 0.547954
0.230221 0.231376 0.546599
0.544631 0.229161 0.542561
0.825742 0.227505 0.538689
1.000000 0.226488 0.536136
0.000000 0.537747 0.535721
0.226519 0.536771 0.533415
0.541149 0.534723 0.529586
0.821405 0.533437 0.526807
1.000000 0.532679 0.524901
0.000000 0.813486 0.525342
0.224443 0.812777 0.522416
0.538005 0.811328 0.518058
0.820694 0.809437 0.516137
1.000000 0.808843 0.519104
0.000000 1.000000 0.518251
0.223591 1.000000 0.515157
0.536842 1.000000 0.510724
0.819495 1.000000 0.507743
1.000000 1.000000 0.507368
0.000523 0.007418 0.836474
0.232349 0.005899 0.833639
0.545421 0.003902 0.829775
0.826182 0.002155 0.826371
1.000000 0.000977 0.823938
0.000000 0.232326 0.826995
0.229934 0.230771 0.826025
0.543942 0.228685 0.822128
0.825536 0.226864 0.818678
1.000000 0.225782 0.816018
0.000000 0.537206 0.814851
0.226662 0.536068 0.813316
0.540803 0.534060 0.810754
0.823527 0.532137 0.807230
1.000000 0.531077 0.804591
0.000000 0.812998 0.804557
0.224218 0.812234 0.802497
0.537656 0.810733 0.799250
0.820568 0.808935 0.795951
1.000000 0.808300 0.794353
0.000000 1.000000 0.797517
0.223418 1.000000 0.795128
0.536519 1.000000 0.791541
0.818867 1.000000 0.788027
1.000000 1.000000 0.786703
0.000332 0.006991 1.000000
0.232160 0.005480 1.000000
0.545234 0.003491 1.000000
0.825999 0.001753 1.000000
1.000000 0.000575 1.000000
0.000000 0.231918 1.000000
0.229761 0.230359 1.000000
0.543617 0.228325 1.000000
0.825084 0.226545 1.000000
1.000000 0.225362 1.000000
0.000000 0.536824 1.000000
0.226665 0.535625 1.000000
0.540612 0.533637 1.000000
0.823029 0.531802 1.000000
1.000000 0.530620 1.000000
0.000000 0.812639 1.000000
0.224375 0.811765 1.000000
0.537786 0.810213 1.000000
0.820364 0.808461 1.000000
1.000000 0.807289 1.000000
0.000000 1.000000 1.000000
0.223293 1.000000 1.000000
0.536352 1.000000 1.000000
0.818620 1.000000 1.000000
1.000000 1.000000 0.998745
