assets/luts/haut_neutral.cube
TITLE "Haut Neutral"
# Sicherer Grundlook. Haut bleibt Haut, nur sauberer: eine Spur Waerme, Kontrast im Mittelton, Schatten leicht kuehl. Nimm den, wenn du nicht weisst, welchen du nehmen sollst.
# erzeugt von tools/make_lut.py aus assets/luts/looks.json (haut_neutral)
LUT_3D_SIZE 33
DOMAIN_MIN 0.0 0.0 0.0
DOMAIN_MAX 1.0 1.0 1.0
0.001444 0.009255 0.023759
0.026227 0.009069 0.023471
0.051738 0.008907 0.023109
0.078379 0.008758 0.022765
0.106383 0.008611 0.022426
0.135770 0.008461 0.022083
0.166545 0.008305 0.021731
0.198712 0.008143 0.021367
0.232273 0.007976 0.020991
0.267229 0.007802 0.020602
0.303579 0.007622 0.020200
0.341325 0.007437 0.019784
0.380466 0.007245 0.019355
0.421003 0.007048 0.018912
0.462654 0.006846 0.018459
0.503551 0.006648 0.018015
0.543353 0.006457 0.017585
0.582059 0.006272 0.017168
0.619669 0.006093 0.016764
0.656184 0.005920 0.016373
0.691602 0.005752 0.015994
0.725926 0.005591 0.015628
0.759153 0.005435 0.015275
0.791284 0.005285 0.014935
0.822319 0.005141 0.014606
0.852259 0.005002 0.014290
0.881102 0.004869 0.013986
0.908849 0.004742 0.013695
0.935500 0.004619 0.013415
0.961055 0.004503 0.013148
0.985513 0.004391 0.012892
1.000000 0.004285 0.012648
1.000000 0.004248 0.012478
0.001157 0.033027 0.022704
0.025861 0.032875 0.022324
0.051161 0.032742 0.022303
0.077695 0.032626 0.021982
0.105675 0.032487 0.021652
0.135054 0.032339 0.021317
0.165826 0.032185 0.020971
0.197993 0.032026 0.020614
0.231554 0.031860 0.020243
0.266510 0.031688 0.019859
0.302860 0.031510 0.019462
0.340607 0.031326 0.019050
0.379749 0.031136 0.018625
0.420287 0.030940 0.018186
0.461938 0.030741 0.017737
0.502836 0.030545 0.017297
0.542638 0.030356 0.016870
0.581344 0.030173 0.016457
0.618955 0.029996 0.016056
0.655470 0.029824 0.015668
0.690889 0.029659 0.015292
0.725213 0.029499 0.014929
0.758441 0.029345 0.014578
0.790572 0.029197 0.014240
0.821608 0.029055 0.013914
0.851548 0.028917 0.013601
0.880391 0.028786 0.013299
0.908138 0.028660 0.013010
0.934790 0.028539 0.012732
0.960345 0.028423 0.012467
0.984803 0.028313 0.012213
1.000000 0.028208 0.011971
1.000000 0.028173 0.011804
0.000871 0.057774 0.021617
0.025514 0.057647 0.021192
0.051137 0.057450 0.020880
0.077643 0.057283 0.021155
0.105285 0.057217 0.021113
0.134462 0.057127 0.020818
0.165132 0.057008 0.020457
0.197243 0.056869 0.020074
0.230774 0.056716 0.019681
0.265713 0.056554 0.019278
0.302054 0.056383 0.018865
0.339794 0.056204 0.018442
0.378933 0.056019 0.018007
0.419470 0.055827 0.017561
0.461121 0.055631 0.017106
0.502020 0.055438 0.016661
0.541823 0.055252 0.016231
0.580531 0.055071 0.015815
0.618143 0.054896 0.015412
0.654660 0.054727 0.015023
0.690081 0.054563 0.014647
0.724406 0.054406 0.014283
0.757635 0.054253 0.013932
0.789768 0.054107 0.013594
0.820805 0.053966 0.013268
0.850747 0.053830 0.012955
0.879592 0.053700 0.012654
0.907340 0.053575 0.012365
0.933993 0.053455 0.012087
0.959549 0.053341 0.011822
0.984009 0.053232 0.011569
1.000000 0.053128 0.011328
1.000000 0.053095 0.011163
0.000574 0.083754 0.020487
0.025198 0.083636 0.020048
0.050791 0.083451 0.019713
0.077600 0.083248 0.019469
0.105535 0.083061 0.019794
0.134540 0.082975 0.019985
0.164956 0.082909 0.019858
0.196869 0.082823 0.019564
0.230261 0.082711 0.019194
0.265105 0.082580 0.018788
0.301382 0.082431 0.018362
0.339078 0.082270 0.017922
0.378186 0.082099 0.017471
0.418700 0.081918 0.017010
0.460336 0.081730 0.016542
0.501223 0.081545 0.016087
0.541019 0.081364 0.015648
0.579722 0.081189 0.015224
0.617330 0.081018 0.014815
0.653844 0.080853 0.014421
0.689263 0.080693 0.014040
0.723587 0.080538 0.013673
0.756816 0.080388 0.013320
0.788949 0.080244 0.012979
0.819986 0.080106 0.012651
0.849927 0.079972 0.012336
0.878773 0.079844 0.012033
0.906522 0.079721 0.011743
0.933175 0.079603 0.011465
0.958732 0.079491 0.011199
0.983193 0.079383 0.010945
1.000000 0.079281 0.010704
1.000000 0.079250 0.010541
0.000267 0.111093 0.019304
0.024884 0.110979 0.018862
0.050461 0.110800 0.018532
0.077260 0.110612 0.018200
0.105451 0.110400 0.018024
0.134800 0.110200 0.018362
0.165231 0.110087 0.018677
0.196977 0.110019 0.018717
0.230172 0.109949 0.018540
0.264843 0.109861 0.018232
0.300983 0.109752 0.017851
0.338575 0.109623 0.017427
0.377603 0.109478 0.016977
0.418058 0.109318 0.016509
0.459648 0.109148 0.016030
0.500502 0.108977 0.015564
0.540273 0.108808 0.015114
0.578957 0.108641 0.014681
0.616551 0.108479 0.014263
0.653054 0.108320 0.013861
0.688465 0.108166 0.013474
0.722782 0.108016 0.013101
0.756005 0.107871 0.012742
0.788134 0.107731 0.012397
0.819168 0.107596 0.012065
0.849106 0.107466 0.011747
0.877949 0.107341 0.011441
0.905697 0.107221 0.011148
0.932349 0.107106 0.010868
0.957905 0.106996 0.010600
0.982364 0.106890 0.010344
1.000000 0.106790 0.010101
1.000000 0.106762 0.009941
0.000000 0.139792 0.018070
0.024566 0.139680 0.017631
0.050135 0.139505 0.017305
0.076922 0.139323 0.016967
0.105119 0.139126 0.016647
0.134695 0.138906 0.016529
0.165451 0.138696 0.016877
0.197316 0.138560 0.017259
0.230442 0.138479 0.017431
0.264963 0.138413 0.017378
0.300937 0.138339 0.017160
0.338377 0.138248 0.016833
0.377277 0.138139 0.016437
0.417627 0.138011 0.015996
0.459133 0.137868 0.015528
0.499923 0.137719 0.015063
0.539645 0.137567 0.014610
0.578290 0.137416 0.014171
0.615854 0.137266 0.013747
0.652333 0.137118 0.013338
0.687724 0.136973 0.012944
0.722025 0.136831 0.012564
0.755235 0.136693 0.012200
0.787353 0.136560 0.011849
0.818378 0.136430 0.011512
0.848309 0.136305 0.011189
0.877146 0.136184 0.010880
0.904888 0.136068 0.010583
0.931535 0.135957 0.010300
0.957087 0.135850 0.010029
0.981543 0.135748 0.009771
1.000000 0.135650 0.009525
1.000000 0.135625 0.009366
0.000000 0.169852 0.016786
0.024242 0.169741 0.016352
0.049805 0.169569 0.016030
0.076586 0.169390 0.015694
0.104775 0.169201 0.015351
0.134373 0.168995 0.015052
0.165336 0.168768 0.014983
0.197497 0.168550 0.015339
0.230790 0.168395 0.015764
0.265318 0.168297 0.016033
0.301198 0.168226 0.016094
0.338500 0.168159 0.015974
0.377255 0.168081 0.015720
0.417469 0.167988 0.015371
0.458857 0.167877 0.014960
0.499550 0.167757 0.014528
0.539194 0.167630 0.014093
0.577777 0.167500 0.013662
0.615290 0.167367 0.013241
0.651728 0.167235 0.012831
0.687084 0.167103 0.012435
0.721357 0.166973 0.012052
0.754544 0.166845 0.011684
0.786641 0.166720 0.011329
0.817649 0.166599 0.010988
0.847566 0.166481 0.010661
0.876390 0.166367 0.010347
0.904122 0.166256 0.010047
0.930760 0.166150 0.009760
0.956304 0.166048 0.009485
0.980754 0.165950 0.009224
1.000000 0.165857 0.008976
1.000000 0.165834 0.008820
0.000000 0.201274 0.015453
0.023912 0.201162 0.015025
0.049472 0.200994 0.014706
0.076249 0.200818 0.014374
0.104433 0.200632 0.014028
0.134026 0.200435 0.013685
0.165024 0.200221 0.013410
0.197376 0.199987 0.013385
0.230940 0.199761 0.013749
0.265657 0.199591 0.014203
0.301596 0.199477 0.014548
0.338855 0.199397 0.014708
0.377507 0.199330 0.014684
0.417593 0.199260 0.014511
0.458850 0.199180 0.014225
0.499426 0.199089 0.013876
0.538969 0.198990 0.013495
0.577467 0.198885 0.013100
0.614908 0.198775 0.012702
0.651285 0.198661 0.012307
0.686591 0.198547 0.011919
0.720821 0.198432 0.011541
0.753971 0.198318 0.011174
0.786037 0.198205 0.010820
0.817018 0.198094 0.010478
0.846912 0.197986 0.010149
0.875716 0.197880 0.009834
0.903431 0.197777 0.009531
0.930054 0.197678 0.009242
0.955584 0.197582 0.008965
0.980022 0.197490 0.008701
1.000000 0.197402 0.008450
1.000000 0.197383 0.008297
0.000000 0.234058 0.014071
0.023576 0.233946 0.013651
0.049134 0.233780 0.013335
0.075909 0.233607 0.013006
0.104090 0.233424 0.012661
0.133678 0.233232 0.012308
0.164675 0.233027 0.011970
0.197073 0.232805 0.011723
0.230817 0.232564 0.011735
0.265783 0.232331 0.012109
0.301920 0.232148 0.012586
0.339273 0.232019 0.012990
0.377923 0.231929 0.013234
0.417941 0.231858 0.013301
0.459095 0.231793 0.013212
0.499558 0.231724 0.013008
0.538992 0.231651 0.012732
0.577391 0.231570 0.012412
0.614745 0.231484 0.012068
0.651045 0.231393 0.011711
0.686285 0.231299 0.011351
0.720457 0.231202 0.010992
0.753556 0.231104 0.010640
0.785579 0.231006 0.010295
0.816522 0.230908 0.009960
0.846383 0.230812 0.009635
0.875158 0.230717 0.009322
0.902847 0.230624 0.009021
0.929448 0.230534 0.008732
0.954959 0.230447 0.008456
0.979379 0.230362 0.008192
1.000000 0.230280 0.007940
1.000000 0.230265 0.007790
0.000000 0.268205 0.012642
0.023235 0.268092 0.012231
0.048791 0.267929 0.011918
0.075565 0.267758 0.011592
0.103744 0.267579 0.011250
0.133330 0.267390 0.010895
0.164323 0.267191 0.010537
0.196725 0.266978 0.010208
0.230523 0.266748 0.009988
0.265661 0.266501 0.010034
0.302028 0.266261 0.010419
0.339581 0.266067 0.010916
0.378349 0.265925 0.011368
0.418399 0.265823 0.011685
0.459516 0.265748 0.011836
0.499905 0.265685 0.011832
0.539248 0.265626 0.011714
0.577552 0.265565 0.011516
0.614814 0.265500 0.011265
0.651030 0.265431 0.010979
0.686192 0.265357 0.010673
0.720295 0.265280 0.010356
0.753333 0.265200 0.010034
0.785301 0.265119 0.009714
0.816195 0.265037 0.009397
0.846012 0.264954 0.009087
0.874750 0.264873 0.008785
0.902404 0.264792 0.008492
0.928974 0.264712 0.008209
0.954459 0.264634 0.007938
0.978855 0.264559 0.007677
1.000000 0.264485 0.007428
1.000000 0.264474 0.007282
0.000000 0.303717 0.011167
0.022889 0.303603 0.010766
0.048444 0.303442 0.010456
0.075217 0.303273 0.010133
0.103395 0.303096 0.009793
0.132980 0.302911 0.009440
0.163972 0.302716 0.009076
0.196372 0.302510 0.008717
0.230179 0.302290 0.008400
0.265376 0.302052 0.008208
0.301908 0.301798 0.008285
0.339678 0.301553 0.008682
0.378644 0.301349 0.009197
0.418827 0.301194 0.009690
0.460002 0.301083 0.010068
0.500384 0.301003 0.010288
0.539681 0.300942 0.010366
0.577917 0.300888 0.010333
0.615101 0.300837 0.010215
0.651237 0.300783 0.010038
0.686321 0.300727 0.009818
0.720350 0.300669 0.009569
0.753319 0.300607 0.009303
0.785225 0.300543 0.009026
0.816062 0.300477 0.008745
0.845828 0.300410 0.008463
0.874518 0.300342 0.008184
0.902131 0.300275 0.007909
0.928664 0.300207 0.007642
0.954113 0.300141 0.007382
0.978479 0.300076 0.007132
1.000000 0.300012 0.006891
1.000000 0.300005 0.006750
0.000000 0.340594 0.009646
0.022538 0.340478 0.009256
0.048094 0.340319 0.008950
0.074867 0.340153 0.008629
0.103045 0.339979 0.008293
0.132629 0.339796 0.007941
0.163619 0.339605 0.007577
0.196018 0.339403 0.007208
0.229824 0.339191 0.006850
0.265036 0.338963 0.006548
0.301634 0.338718 0.006383
0.339562 0.338459 0.006490
0.378733 0.338208 0.006899
0.419111 0.337995 0.007431
0.460429 0.337830 0.007956
0.500886 0.337713 0.008372
0.540202 0.337630 0.008653
0.578418 0.337567 0.008808
0.615558 0.337515 0.008856
0.651635 0.337469 0.008819
0.686653 0.337424 0.008718
0.720615 0.337378 0.008568
0.753517 0.337332 0.008383
0.785359 0.337283 0.008174
0.816136 0.337232 0.007949
0.845845 0.337180 0.007713
0.874484 0.337127 0.007473
0.902049 0.337073 0.007231
0.928537 0.337019 0.006990
0.953947 0.336965 0.006753
0.978277 0.336911 0.006521
1.000000 0.336858 0.006296
1.000000 0.336855 0.006161
0.000000 0.378837 0.008083
0.022185 0.378719 0.007704
0.047741 0.378562 0.007400
0.074514 0.378399 0.007083
0.102692 0.378227 0.006749
0.132276 0.378047 0.006401
0.163267 0.377858 0.006038
0.195664 0.377661 0.005666
0.229470 0.377454 0.005292
0.264684 0.377234 0.004939
0.301300 0.377000 0.004652
0.339298 0.376748 0.004514
0.378623 0.376484 0.004649
0.419197 0.376228 0.005072
0.460704 0.376009 0.005617
0.501305 0.375841 0.006149
0.540711 0.375719 0.006594
0.578968 0.375629 0.006928
0.616112 0.375562 0.007151
0.652167 0.375510 0.007276
0.687146 0.375466 0.007318
0.721058 0.375426 0.007293
0.753907 0.375388 0.007216
0.785691 0.375350 0.007099
0.816412 0.375312 0.006953
0.846066 0.375272 0.006784
0.874652 0.375232 0.006600
0.902167 0.375191 0.006406
0.928609 0.375149 0.006207
0.953975 0.375106 0.006005
0.978264 0.375064 0.005803
1.000000 0.375022 0.005604
1.000000 0.375023 0.005476
0.000000 0.418447 0.006477
0.021829 0.418327 0.006110
0.047385 0.418173 0.005809
0.074159 0.418011 0.005495
0.102338 0.417842 0.005165
0.131923 0.417664 0.004819
0.162914 0.417479 0.004459
0.195311 0.417285 0.004086
0.229116 0.417082 0.003707
0.264330 0.416868 0.003331
0.300951 0.416642 0.002985
0.338972 0.416401 0.002715
0.378371 0.416144 0.002604
0.419093 0.415874 0.002766
0.460788 0.415615 0.003200
0.501566 0.415399 0.003733
0.541114 0.415230 0.004263
0.579471 0.415101 0.004730
0.616674 0.415005 0.005109
0.652755 0.414933 0.005393
0.687734 0.414877 0.005587
0.721628 0.414832 0.005704
0.754444 0.414794 0.005754
0.786190 0.414760 0.005750
0.816866 0.414728 0.005703
0.846473 0.414697 0.005621
0.875012 0.414666 0.005513
0.902480 0.414635 0.005385
0.928876 0.414604 0.005243
0.954199 0.414572 0.005090
0.978447 0.414540 0.004932
1.000000 0.414508 0.004771
1.000000 0.414513 0.004650
0.000000 0.459275 0.004836
0.021473 0.459154 0.004482
0.047030 0.459002 0.004184
0.073805 0.458843 0.003872
0.101985 0.458676 0.003545
0.131571 0.458501 0.003203
0.162563 0.458318 0.002846
0.194961 0.458127 0.002475
0.228766 0.457928 0.002094
0.263979 0.457719 0.001709
0.300601 0.457500 0.001334
0.338629 0.457268 0.000996
0.378055 0.457020 0.000745
0.418855 0.456757 0.000661
0.460692 0.456485 0.000848
0.501641 0.456234 0.001272
0.541354 0.456022 0.001785
0.579851 0.455850 0.002308
0.617161 0.455716 0.002790
0.653314 0.455613 0.003203
0.688338 0.455534 0.003538
0.722251 0.455473 0.003794
0.755068 0.455425 0.003978
0.786800 0.455385 0.004099
0.817452 0.455352 0.004165
0.847029 0.455323 0.004186
0.875533 0.455297 0.004170
0.902964 0.455271 0.004123
0.929322 0.455247 0.004054
0.954606 0.455223 0.003966
0.978816 0.455199 0.003865
1.000000 0.455175 0.003754
1.000000 0.455183 0.003640
0.000000 0.499559 0.003231
0.021133 0.499436 0.002890
0.046691 0.499285 0.002595
0.073467 0.499129 0.002286
0.101648 0.498964 0.001962
0.131235 0.498792 0.001623
0.162228 0.498612 0.001269
0.194627 0.498424 0.000901
0.228433 0.498228 0.000520
0.263647 0.498023 0.000132
0.300268 0.497809 0.000000
0.338299 0.497583 0.000000
0.377734 0.497345 0.000000
0.418564 0.497092 0.000000
0.460479 0.496825 0.000000
0.501555 0.496562 0.000000
0.541416 0.496320 0.000000
0.580059 0.496113 0.000000
0.617499 0.495941 0.000393
0.653759 0.495803 0.000879
0.688862 0.495694 0.001313
0.722830 0.495608 0.001684
0.755681 0.495542 0.001987
0.787430 0.495489 0.002225
0.818085 0.495447 0.002405
0.847654 0.495413 0.002532
0.876142 0.495384 0.002613
0.903552 0.495359 0.002657
0.929885 0.495337 0.002669
0.955142 0.495316 0.002655
0.979323 0.495297 0.002619
1.000000 0.495278 0.002568
1.000000 0.495289 0.002460
0.000000 0.538785 0.001682
0.020812 0.538660 0.001353
0.046372 0.538512 0.001061
0.073148 0.538357 0.000755
0.101331 0.538195 0.000434
0.130919 0.538025 0.000098
0.161913 0.537847 0.000000
0.194314 0.537662 0.000000
0.228121 0.537469 0.000000
0.263335 0.537267 0.000000
0.299957 0.537057 0.000000
0.337988 0.536838 0.000000
0.377427 0.536606 0.000000
0.418269 0.536361 0.000000
0.460218 0.536103 0.000000
0.501367 0.535845 0.000000
0.541340 0.535593 0.000000
0.580111 0.535361 0.000000
0.617680 0.535159 0.000000
0.654057 0.534989 0.000000
0.689261 0.534849 0.000000
0.723310 0.534735 0.000000
0.756222 0.534645 0.000000
0.788014 0.534573 0.000205
0.818697 0.534516 0.000484
0.848282 0.534470 0.000710
0.876775 0.534433 0.000886
0.904181 0.534403 0.001019
0.930505 0.534378 0.001114
0.955748 0.534356 0.001177
0.979912 0.534337 0.001213
1.000000 0.534321 0.001225
1.000000 0.534333 0.001120
0.000000 0.576953 0.000188
0.020510 0.576825 0.000000
0.046070 0.576679 0.000000
0.072848 0.576527 0.000000
0.101032 0.576366 0.000000
0.130622 0.576199 0.000000
0.161617 0.576024 0.000000
0.194019 0.575841 0.000000
0.227828 0.575650 0.000000
0.263043 0.575452 0.000000
0.299666 0.575246 0.000000
0.337698 0.575031 0.000000
0.377138 0.574805 0.000000
0.417985 0.574568 0.000000
0.459949 0.574318 0.000000
0.501134 0.574067 0.000000
0.541175 0.573819 0.000000
0.580045 0.573578 0.000000
0.617725 0.573356 0.000000
0.654216 0.573160 0.000000
0.689525 0.572992 0.000000
0.723668 0.572851 0.000000
0.756659 0.572735 0.000000
0.788514 0.572641 0.000000
0.819245 0.572564 0.000000
0.848865 0.572503 0.000000
0.877382 0.572453 0.000000
0.904804 0.572413 0.000000
0.931134 0.572381 0.000000
0.956378 0.572354 0.000000
0.980538 0.572332 0.000000
1.000000 0.572313 0.000000
1.000000 0.572328 0.000000
0.000000 0.614061 0.000000
0.020225 0.613932 0.000000
0.045787 0.613788 0.000000
0.072566 0.613637 0.000000
0.100751 0.613479 0.000000
0.130342 0.613314 0.000000
0.161339 0.613141 0.000000
0.193743 0.612960 0.000000
0.227553 0.612773 0.000000
0.262770 0.612577 0.000000
0.299394 0.612374 0.000000
0.337426 0.612163 0.000000
0.376868 0.611942 0.000000
0.417717 0.611710 0.000000
0.459688 0.611468 0.000000
0.500890 0.611225 0.000000
0.540967 0.610983 0.000000
0.579901 0.610745 0.000000
0.617669 0.610515 0.000000
0.654257 0.610302 0.000000
0.689666 0.610112 0.000000
0.723904 0.609948 0.000000
0.756981 0.609808 0.000000
0.788911 0.609691 0.000000
0.819705 0.609594 0.000000
0.849375 0.609514 0.000000
0.877932 0.609448 0.000000
0.905383 0.609395 0.000000
0.931735 0.609352 0.000000
0.956993 0.609317 0.000000
0.981161 0.609288 0.000000
1.000000 0.609264 0.000000
1.000000 0.609281 0.000000
0.000000 0.650110 0.000000
0.019957 0.649979 0.000000
0.045520 0.649837 0.000000
0.072300 0.649688 0.000000
0.100487 0.649532 0.000000
0.130080 0.649368 0.000000
0.161078 0.649197 0.000000
0.193483 0.649019 0.000000
0.227295 0.648834 0.000000
0.262513 0.648642 0.000000
0.299139 0.648441 0.000000
0.337173 0.648233 0.000000
0.376615 0.648017 0.000000
0.417466 0.647790 0.000000
0.459440 0.647554 0.000000
0.500651 0.647318 0.000000
0.540748 0.647083 0.000000
0.579717 0.646851 0.000000
0.617544 0.646623 0.000000
0.654211 0.646403 0.000000
0.689706 0.646199 0.000000
0.724032 0.646016 0.000000
0.757194 0.645855 0.000000
0.789202 0.645717 0.000000
0.820066 0.645600 0.000000
0.849797 0.645501 0.000000
0.878404 0.645419 0.000000
0.905896 0.645351 0.000000
0.932281 0.645294 0.000000
0.957564 0.645248 0.000000
0.981752 0.645210 0.000000
1.000000 0.645179 0.000000
1.000000 0.645198 0.000000
0.000000 0.685098 0.000000
0.019704 0.684965 0.000000
0.045269 0.684825 0.000000
0.072051 0.684678 0.000000
0.100239 0.684524 0.000000
0.129833 0.684362 0.000000
0.160833 0.684193 0.000000
0.193240 0.684018 0.000000
0.227053 0.683835 0.000000
0.262273 0.683645 0.000000
0.298900 0.683447 0.000000
0.336935 0.683242 0.000000
0.376379 0.683029 0.000000
0.417231 0.682807 0.000000
0.459207 0.682576 0.000000
0.500423 0.682346 0.000000
0.540530 0.682118 0.000000
0.579520 0.681892 0.000000
0.617383 0.681669 0.000000
0.654104 0.681450 0.000000
0.689669 0.681240 0.000000
0.724070 0.681045 0.000000
0.757311 0.680869 0.000000
0.789394 0.680713 0.000000
0.820330 0.680578 0.000000
0.850125 0.680461 0.000000
0.878789 0.680362 0.000000
0.906330 0.680278 0.000000
0.932757 0.680207 0.000000
0.958075 0.680148 0.000000
0.982290 0.680099 0.000000
1.000000 0.680061 0.000000
1.000000 0.680081 0.000000
0.000000 0.719025 0.000000
0.019468 0.718891 0.000000
0.045033 0.718752 0.000000
0.071817 0.718606 0.000000
0.100006 0.718454 0.000000
0.129602 0.718295 0.000000
0.160604 0.718128 0.000000
0.193012 0.717954 0.000000
0.226827 0.717774 0.000000
0.262049 0.717586 0.000000
0.298677 0.717391 0.000000
0.336714 0.717189 0.000000
0.376158 0.716979 0.000000
0.417012 0.716761 0.000000
0.458989 0.716535 0.000000
0.500208 0.716310 0.000000
0.540321 0.716088 0.000000
0.579323 0.715867 0.000000
0.617207 0.715650 0.000000
0.653962 0.715435 0.000000
0.689578 0.715226 0.000000
0.724042 0.715026 0.000000
0.757349 0.714839 0.000000
0.789502 0.714670 0.000000
0.820505 0.714519 0.000000
0.850365 0.714387 0.000000
0.879088 0.714272 0.000000
0.906682 0.714173 0.000000
0.933156 0.714088 0.000000
0.958514 0.714016 0.000000
0.982764 0.713955 0.000000
1.000000 0.713909 0.000000
1.000000 0.713930 0.000000
0.000000 0.751887 0.000000
0.019245 0.751754 0.000000
0.044812 0.751617 0.000000
0.071597 0.751473 0.000000
0.099788 0.751322 0.000000
0.129385 0.751165 0.000000
0.160389 0.751000 0.000000
0.192799 0.750829 0.000000
0.226615 0.750650 0.000000
0.261838 0.750465 0.000000
0.298469 0.750272 0.000000
0.336507 0.750073 0.000000
0.375953 0.749866 0.000000
0.416807 0.749651 0.000000
0.458786 0.749429 0.000000
0.500007 0.749209 0.000000
0.540124 0.748992 0.000000
0.579133 0.748777 0.000000
0.617030 0.748564 0.000000
0.653806 0.748355 0.000000
0.689455 0.748150 0.000000
0.723966 0.747950 0.000000
0.757329 0.747758 0.000000
0.789542 0.747580 0.000000
0.820606 0.747418 0.000000
0.850526 0.747273 0.000000
0.879307 0.747144 0.000000
0.906955 0.747032 0.000000
0.933477 0.746934 0.000000
0.958880 0.746849 0.000000
0.983169 0.746776 0.000000
1.000000 0.746721 0.000000
1.000000 0.746744 0.000000
0.000000 0.783687 0.000000
0.019037 0.783555 0.000000
0.044605 0.783419 0.000000
0.071391 0.783277 0.000000
0.099583 0.783128 0.000000
0.129182 0.782972 0.000000
0.160187 0.782809 0.000000
0.192599 0.782640 0.000000
0.226417 0.782463 0.000000
0.261642 0.782280 0.000000
0.298274 0.782090 0.000000
0.336314 0.781893 0.000000
0.375761 0.781689 0.000000
0.416617 0.781477 0.000000
0.458598 0.781259 0.000000
0.499820 0.781043 0.000000
0.539939 0.780830 0.000000
0.578953 0.780620 0.000000
0.616857 0.780413 0.000000
0.653648 0.780209 0.000000
0.689318 0.780007 0.000000
0.723860 0.779811 0.000000
0.757266 0.779620 0.000000
0.789529 0.779438 0.000000
0.820646 0.779268 0.000000
0.850621 0.779113 0.000000
0.879455 0.778973 0.000000
0.907156 0.778848 0.000000
0.933726 0.778738 0.000000
0.959174 0.778642 0.000000
0.983503 0.778558 0.000000
1.000000 0.778495 0.000000
1.000000 0.778520 0.000000
0.000000 0.814423 0.000000
0.018842 0.814292 0.000000
0.044411 0.814158 0.000000
0.071199 0.814018 0.000000
0.099392 0.813870 0.000000
0.128992 0.813716 0.000000
0.159999 0.813555 0.000000
0.192412 0.813388 0.000000
0.226232 0.813213 0.000000
0.261459 0.813032 0.000000
0.298093 0.812844 0.000000
0.336134 0.812650 0.000000
0.375583 0.812448 0.000000
0.416440 0.812239 0.000000
0.458422 0.812024 0.000000
0.499646 0.811811 0.000000
0.539767 0.811603 0.000000
0.578783 0.811397 0.000000
0.616693 0.811195 0.000000
0.653493 0.810995 0.000000
0.689177 0.810799 0.000000
0.723740 0.810606 0.000000
0.757176 0.810418 0.000000
0.789479 0.810236 0.000000
0.820641 0.810062 0.000000
0.850662 0.809900 0.000000
0.879546 0.809752 0.000000
0.907294 0.809618 0.000000
0.933911 0.809497 0.000000
0.959402 0.809390 0.000000
0.983772 0.809296 0.000000
1.000000 0.809227 0.000000
1.000000 0.809253 0.000000
0.000000 0.844095 0.000000
0.018659 0.843966 0.000000
0.044230 0.843833 0.000000
0.071018 0.843694 0.000000
0.099214 0.843549 0.000000
0.128815 0.843396 0.000000
0.159823 0.843237 0.000000
0.192238 0.843071 0.000000
0.226059 0.842899 0.000000
0.261288 0.842720 0.000000
0.297923 0.842534 0.000000
0.335966 0.842342 0.000000
0.375417 0.842142 0.000000
0.416276 0.841936 0.000000
0.458259 0.841724 0.000000
0.499484 0.841515 0.000000
0.539607 0.841310 0.000000
0.578625 0.841108 0.000000
0.616539 0.840910 0.000000
0.653344 0.840714 0.000000
0.689038 0.840522 0.000000
0.723616 0.840333 0.000000
0.757073 0.840148 0.000000
0.789403 0.839969 0.000000
0.820601 0.839795 0.000000
0.850663 0.839630 0.000000
0.879588 0.839476 0.000000
0.907380 0.839334 0.000000
0.934039 0.839206 0.000000
0.959572 0.839090 0.000000
0.983981 0.838987 0.000000
1.000000 0.838913 0.000000
1.000000 0.838940 0.000000
0.000000 0.872703 0.000000
0.018488 0.872575 0.000000
0.044060 0.872444 0.000000
0.070850 0.872307 0.000000
0.099047 0.872162 0.000000
0.128650 0.872012 0.000000
0.159659 0.871854 0.000000
0.192075 0.871690 0.000000
0.225898 0.871519 0.000000
0.261128 0.871342 0.000000
0.297766 0.871159 0.000000
0.335810 0.870968 0.000000
0.375263 0.870771 0.000000
0.416123 0.870568 0.000000
0.458108 0.870358 0.000000
0.499334 0.870152 0.000000
0.539458 0.869950 0.000000
0.578479 0.869752 0.000000
