assets/luts/haut_neutral.cube
TITLE "Haut Neutral"
# Sicherer Grundlook. Haut bleibt Haut, nur sauberer: eine Spur Waerme, Kontrast im Mittelton, Schatten leicht kuehl. Nimm den, wenn du nicht weisst, welchen du nehmen sollst.
# erzeugt von tools/make_lut.py aus assets/luts/looks.json (haut_neutral)
LUT_3D_SIZE 9
DOMAIN_MIN 0.0 0.0 0.0
DOMAIN_MAX 1.0 1.0 1.0
0.001444 0.009255 0.023759
0.106383 0.008611 0.022426
0.232273 0.007976 0.020991
0.380466 0.007245 0.019355
0.543353 0.006457 0.017585
0.691602 0.005752 0.015994
0.822319 0.005141 0.014606
0.935500 0.004619 0.013415
1.000000 0.004248 0.012478
0.000267 0.111093 0.019304
0.105451 0.110400 0.018024
0.230172 0.109949 0.018540
0.377603 0.109478 0.016977
0.540273 0.108808 0.015114
0.688465 0.108166 0.013474
0.819168 0.107596 0.012065
0.932349 0.107106 0.010868
1.000000 0.106762 0.009941
0.000000 0.234058 0.014071
0.104090 0.233424 0.012661
0.230817 0.232564 0.011735
0.377923 0.231929 0.013234
0.538992 0.231651 0.012732
0.686285 0.231299 0.011351
0.816522 0.230908 0.009960
0.929448 0.230534 0.008732
1.000000 0.230265 0.007790
0.000000 0.378837 0.008083
0.102692 0.378227 0.006749
0.229470 0.377454 0.005292
0.378623 0.376484 0.004649
0.540711 0.375719 0.006594
0.687146 0.375466 0.007318
0.816412 0.375312 0.006953
0.928609 0.375149 0.006207
1.000000 0.375023 0.005476
0.000000 0.538785 0.001682
0.101331 0.538195 0.000434
0.228121 0.537469 0.000000
0.377427 0.536606 0.000000
0.541340 0.535593 0.000000
0.689261 0.534849 0.000000
0.818697 0.534516 0.000484
0.930505 0.534378 0.001114
1.000000 0.534333 0.001120
0.000000 0.685098 0.000000
0.100239 0.684524 0.000000
0.227053 0.683835 0.000000
0.376379 0.683029 0.000000
0.540530 0.682118 0.000000
0.689669 0.681240 0.000000
0.820330 0.680578 0.000000
0.932757 0.680207 0.000000
1.000000 0.680081 0.000000
0.000000 0.814423 0.000000
0.099392 0.813870 0.000000
0.226232 0.813213 0.000000
0.375583 0.812448 0.000000
0.539767 0.811603 0.000000
0.689177 0.810799 0.000000
0.820641 0.810062 0.000000
0.933911 0.809497 0.000000
1.000000 0.809253 0.000000
0.000000 0.926724 0.000000
0.098746 0.926194 0.000000
0.225609 0.925564 0.000000
0.374986 0.924832 0.000000
0.539193 0.924031 0.000000
0.688659 0.923285 0.000000
0.820382 0.922597 0.000000
0.934183 0.921989 0.000000
1.000000 0.921683 0.000000
0.000000 1.000000 0.000000
0.098547 1.000000 0.000000
0.225433 1.000000 0.000000
0.374837 1.000000 0.000000
0.539071 1.000000 0.000000
0.688565 1.000000 0.000000
0.820363 1.000000 0.000000
0.934366 1.000000 0.000000
1.000000 1.000000 0.000000
0.001329 0.009019 0.126341
0.106535 0.008294 0.125059
0.233154 0.007468 0.123396
0.381949 0.006590 0.121484
0.545203 0.005720 0.119490
0.693649 0.004976 0.117760
0.824481 0.004342 0.116283
0.937736 0.003808 0.115032
1.000000 0.003430 0.114060
0.000154 0.110863 0.121914
0.105294 0.110179 0.120702
0.231939 0.109381 0.119033
0.380292 0.108648 0.117385
0.543271 0.107879 0.115639
0.691581 0.107197 0.114080
0.822343 0.106609 0.112723
0.935558 0.106107 0.111560
1.000000 0.105759 0.110653
0.000000 0.233837 0.116684
0.103563 0.233362 0.114976
0.230767 0.232406 0.113620
0.377673 0.231883 0.114643
0.539726 0.231427 0.113053
0.687800 0.230873 0.111400
0.818497 0.230353 0.109980
0.931699 0.229897 0.108782
1.000000 0.229585 0.107872
0.000000 0.378626 0.110705
0.102023 0.378241 0.108851
0.229067 0.377408 0.107238
0.378614 0.376353 0.106325
0.540468 0.375639 0.108489
0.686977 0.375437 0.108534
0.816638 0.375223 0.107627
0.929231 0.374977 0.106578
1.000000 0.374792 0.105714
0.000000 0.538584 0.104318
0.100577 0.538261 0.102417
0.227574 0.537485 0.100910
0.377133 0.536566 0.099228
0.541357 0.535483 0.098770
0.689191 0.534733 0.100962
0.818457 0.534468 0.102282
0.930270 0.534365 0.102583
1.000000 0.534323 0.102353
0.000000 0.684907 0.098674
0.099448 0.684620 0.096785
0.226437 0.683888 0.095352
0.375962 0.683034 0.093694
0.540342 0.682078 0.092145
0.689703 0.681145 0.092227
0.820352 0.680461 0.094130
0.932648 0.680124 0.095761
1.000000 0.680029 0.096426
0.000000 0.814249 0.093841
0.098591 0.813984 0.091989
0.225577 0.813290 0.090606
0.375099 0.812484 0.088999
0.539467 0.811599 0.087331
0.689065 0.810759 0.086303
0.820689 0.809980 0.086718
0.933976 0.809391 0.088315
1.000000 0.809153 0.089325
0.000000 0.926569 0.089763
0.097939 0.926320 0.087950
0.224932 0.925659 0.086609
0.374460 0.924890 0.085047
0.538829 0.924052 0.083386
0.688448 0.923277 0.082091
0.820324 0.922559 0.081553
0.934243 0.921918 0.082137
1.000000 0.921596 0.082930
0.000000 1.000000 0.086668
0.097740 1.000000 0.084896
0.224746 1.000000 0.083590
0.374289 1.000000 0.082071
0.538673 1.000000 0.080443
0.688305 1.000000 0.079094
0.820237 1.000000 0.078264
0.934364 1.000000 0.078207
1.000000 1.000000 0.078549
0.001186 0.008737 0.250324
0.106361 0.008024 0.249056
0.233040 0.007179 0.247444
0.382141 0.006215 0.245534
0.545899 0.005209 0.243448
0.694763 0.004359 0.241582
0.825897 0.003653 0.239978
0.939365 0.003069 0.238623
1.000000 0.002663 0.237583
0.000029 0.110586 0.245917
0.105140 0.109861 0.245232
0.232334 0.108904 0.243547
0.381651 0.107940 0.241399
0.545294 0.107021 0.239234
0.693946 0.106270 0.237409
0.824899 0.105646 0.235884
0.938231 0.105125 0.234611
1.000000 0.104767 0.233641
0.000000 0.233572 0.240710
0.103407 0.233048 0.239598
0.230612 0.232125 0.237960
0.379683 0.231249 0.236141
0.542927 0.230461 0.234390
0.691386 0.229787 0.232851
0.822247 0.229213 0.231521
0.935534 0.228729 0.230386
1.000000 0.228404 0.229512
0.000000 0.378371 0.234744
0.101882 0.377961 0.233261
0.228538 0.377283 0.231290
0.378549 0.376141 0.229916
0.540073 0.375601 0.231387
0.687439 0.375278 0.230158
0.817935 0.374869 0.228765
0.931091 0.374474 0.227558
1.000000 0.374208 0.226660
0.000000 0.538343 0.228372
0.100457 0.538001 0.226734
0.226875 0.537460 0.224644
0.376738 0.536470 0.222825
0.541339 0.535312 0.222046
0.688940 0.534615 0.224446
0.818090 0.534447 0.225188
0.930133 0.534342 0.224868
1.000000 0.534266 0.224295
0.000000 0.684677 0.222743
0.099326 0.684383 0.221043
0.225660 0.683917 0.218935
0.375430 0.683004 0.217201
0.540077 0.681995 0.215441
0.689716 0.681001 0.215354
0.820289 0.680315 0.217544
0.932385 0.680048 0.219108
1.000000 0.679996 0.219574
0.000000 0.814028 0.217923
0.098452 0.813771 0.216199
0.224759 0.813355 0.214107
0.374489 0.812498 0.212441
0.539078 0.811564 0.210662
0.688897 0.810685 0.209418
0.820724 0.809856 0.209765
0.934002 0.809250 0.211603
1.000000 0.809032 0.212699
0.000000 0.926357 0.213857
0.097786 0.926128 0.212125
0.224090 0.925748 0.210059
0.373802 0.924935 0.208449
0.538367 0.924052 0.206712
0.688167 0.923242 0.205276
0.820228 0.922490 0.204564
0.934295 0.921811 0.205136
1.000000 0.921472 0.206059
0.000000 1.000000 0.210774
0.097574 1.000000 0.209048
0.223893 1.000000 0.207015
0.373607 1.000000 0.205452
0.538173 1.000000 0.203762
0.687968 1.000000 0.202310
0.820059 1.000000 0.201330
0.934340 1.000000 0.201159
1.000000 1.000000 0.201503
0.001019 0.008407 0.396082
0.106185 0.007700 0.394820
0.232851 0.006863 0.393218
0.381994 0.005888 0.391347
0.545892 0.004844 0.389286
0.695014 0.003923 0.387422
0.826424 0.003143 0.385787
0.940137 0.002496 0.384383
1.000000 0.002049 0.383302
0.000000 0.110264 0.391691
0.104977 0.109525 0.391203
0.231975 0.108625 0.389584
0.381514 0.107579 0.387652
0.545553 0.106560 0.385377
0.694698 0.105682 0.383410
0.826062 0.104956 0.381733
0.939704 0.104362 0.380323
1.000000 0.103961 0.379261
0.000000 0.233258 0.386507
0.103429 0.232654 0.385765
0.230406 0.231747 0.384691
0.380427 0.230613 0.382688
0.544757 0.229570 0.380321
0.693863 0.228754 0.378345
0.825077 0.228109 0.376726
0.938570 0.227587 0.375399
1.000000 0.227246 0.374418
0.000000 0.378074 0.380569
0.101721 0.377631 0.379522
0.228339 0.376916 0.378078
0.378415 0.375819 0.376119
0.542167 0.374954 0.374315
0.690907 0.374259 0.372776
0.821943 0.373687 0.371465
0.935351 0.373212 0.370353
1.000000 0.372912 0.369514
0.000000 0.538059 0.374216
0.100317 0.537697 0.372886
0.226700 0.537135 0.371157
0.376224 0.536289 0.368962
0.541266 0.535059 0.367660
0.688389 0.534565 0.369514
0.818094 0.534382 0.368826
0.930945 0.534118 0.367740
1.000000 0.533927 0.366881
0.000000 0.684407 0.368604
0.099205 0.684097 0.367147
0.225484 0.683627 0.365296
0.374764 0.682919 0.363024
0.539715 0.681845 0.361074
0.689690 0.680792 0.360645
0.820020 0.680165 0.363012
0.931903 0.680018 0.364062
1.000000 0.680001 0.364048
0.000000 0.813770 0.363800
0.098346 0.813500 0.362281
0.224576 0.813093 0.360372
0.373735 0.812474 0.358084
0.538588 0.811478 0.356207
0.688651 0.810558 0.354698
0.820731 0.809678 0.354875
0.933928 0.809075 0.356951
1.000000 0.808908 0.358041
0.000000 0.926109 0.359748
0.097692 0.925869 0.358197
0.223897 0.925510 0.356260
0.372996 0.924953 0.353979
0.537796 0.924014 0.352170
0.687801 0.923163 0.350592
0.820074 0.922379 0.349628
0.934325 0.921655 0.350135
1.000000 0.921304 0.351196
0.000000 1.000000 0.356678
0.097491 1.000000 0.355118
0.223693 1.000000 0.353177
0.372774 1.000000 0.350921
0.537558 1.000000 0.349169
0.687544 1.000000 0.347618
0.819812 1.000000 0.346452
0.934280 1.000000 0.346093
1.000000 1.000000 0.346422
0.000836 0.008043 0.557491
0.105998 0.007341 0.556234
0.232661 0.006509 0.554639
0.381799 0.005542 0.552777
0.545731 0.004492 0.550749
0.694911 0.003557 0.548903
0.826430 0.002749 0.547289
0.940279 0.002065 0.545896
1.000000 0.001588 0.544816
0.000000 0.109909 0.553116
0.104804 0.109166 0.552728
0.231708 0.108296 0.551144
0.381135 0.107286 0.549250
0.545385 0.106189 0.547186
0.694654 0.105285 0.545178
0.826220 0.104507 0.543475
0.940085 0.103854 0.542031
1.000000 0.103412 0.540937
0.000000 0.232914 0.547954
0.103353 0.232273 0.547395
0.230221 0.231376 0.546599
0.379998 0.230313 0.544673
0.544631 0.229161 0.542561
0.694089 0.228260 0.540447
0.825742 0.227505 0.538689
0.939620 0.226888 0.537219
1.000000 0.226488 0.536136
0.000000 0.377742 0.542043
0.101765 0.377222 0.541282
0.228389 0.376470 0.540240
0.378181 0.375409 0.538829
0.543264 0.374192 0.536656
0.693039 0.373254 0.534546
0.824723 0.372538 0.532809
0.938507 0.371986 0.531399
1.000000 0.371651 0.530394
0.000000 0.537747 0.535721
0.100163 0.537362 0.534732
0.226519 0.536771 0.533415
0.375995 0.535899 0.531687
0.541149 0.534723 0.529586
0.690096 0.534029 0.528122
0.821405 0.533437 0.526807
0.934998 0.532959 0.525707
1.000000 0.532679 0.524901
0.000000 0.684109 0.530128
0.099072 0.683782 0.528941
0.225331 0.683291 0.527414
0.374544 0.682575 0.525481
0.539269 0.681607 0.523216
0.689606 0.680510 0.522218
0.819383 0.680109 0.524028
0.931685 0.679994 0.523576
1.000000 0.679888 0.522849
0.000000 0.813486 0.525342
0.098230 0.813201 0.524051
0.224443 0.812777 0.522416
0.373516 0.812165 0.520378
0.538005 0.811328 0.518058
0.688323 0.810362 0.516324
0.820694 0.809437 0.516137
0.933619 0.808907 0.518340
1.000000 0.808843 0.519104
0.000000 0.925836 0.521306
0.097590 0.925584 0.519955
0.223781 0.925210 0.518260
0.372771 0.924672 0.516167
0.537125 0.923926 0.513831
0.687359 0.923024 0.512146
0.819848 0.922212 0.510875
0.934321 0.921445 0.511205
1.000000 0.921095 0.512407
0.000000 1.000000 0.518251
0.097401 1.000000 0.516876
0.223591 1.000000 0.515157
0.372546 1.000000 0.513047
0.536842 1.000000 0.510724
0.687042 1.000000 0.509094
0.819495 1.000000 0.507743
0.934168 1.000000 0.507097
1.000000 1.000000 0.507368
0.000669 0.007711 0.705536
0.105832 0.007012 0.704283
0.232493 0.006185 0.702694
0.381631 0.005223 0.700838
0.545563 0.004179 0.698817
0.694766 0.003241 0.696996
0.826307 0.002430 0.695391
0.940195 0.001738 0.694012
1.000000 0.001252 0.692944
0.000000 0.109586 0.701175
0.104648 0.108841 0.700840
0.231505 0.107988 0.699275
0.380876 0.106998 0.697402
0.545066 0.105924 0.695363
0.694503 0.104959 0.693523
0.826107 0.104177 0.691796
0.940037 0.103510 0.690345
1.000000 0.103052 0.689250
0.000000 0.232601 0.696030
0.103253 0.231942 0.695568
0.230065 0.231051 0.694916
0.379720 0.230027 0.693030
0.544222 0.228916 0.690967
0.693935 0.227920 0.689098
0.825669 0.227152 0.687280
0.939680 0.226503 0.685776
1.000000 0.226075 0.684670
0.000000 0.377441 0.690141
0.101731 0.376883 0.689528
0.228360 0.376114 0.688694
0.378009 0.375073 0.687562
0.542881 0.373917 0.685470
0.692921 0.372885 0.683564
0.824876 0.372105 0.681715
0.939007 0.371466 0.680196
1.000000 0.371071 0.679105
0.000000 0.537459 0.683846
0.100203 0.537014 0.683064
0.226626 0.536380 0.682026
0.376035 0.535496 0.680666
0.540956 0.534354 0.678987
0.691368 0.533277 0.677050
0.823614 0.532461 0.675254
0.937779 0.531855 0.673784
1.000000 0.531522 0.672774
0.000000 0.683838 0.678280
0.098952 0.683495 0.677340
0.225192 0.682983 0.676111
0.374383 0.682245 0.674528
0.539058 0.681262 0.672617
0.689525 0.680218 0.670770
0.820746 0.679690 0.669639
0.934549 0.679199 0.668530
1.000000 0.678934 0.667749
0.000000 0.813227 0.673510
0.098125 0.812929 0.672427
0.224323 0.812489 0.671043
0.373378 0.811857 0.669302
0.537794 0.811022 0.667247
0.687987 0.810122 0.665285
0.820612 0.809179 0.664582
0.933004 0.808866 0.666248
1.000000 0.808860 0.666021
0.000000 0.925587 0.669487
0.097497 0.925323 0.668321
0.223676 0.924936 0.666847
0.372651 0.924382 0.665014
0.536910 0.923650 0.662880
0.686924 0.922850 0.660889
0.819591 0.922013 0.659399
0.934280 0.921219 0.659404
1.000000 0.920907 0.660709
0.000000 1.000000 0.666446
0.097320 1.000000 0.665240
0.223498 1.000000 0.663726
0.372441 1.000000 0.661856
0.536624 1.000000 0.659693
0.686553 1.000000 0.657706
0.819171 1.000000 0.656246
0.934018 1.000000 0.655273
1.000000 1.000000 0.655417
0.000523 0.007418 0.836474
0.105686 0.006723 0.835223
0.232349 0.005899 0.833639
0.381488 0.004941 0.831789
0.545421 0.003902 0.829775
0.694624 0.002968 0.827959
0.826182 0.002155 0.826371
0.940080 0.001463 0.824998
1.000000 0.000977 0.823938
0.000000 0.109301 0.832125
0.104512 0.108557 0.831822
0.231342 0.107715 0.830269
0.380683 0.106738 0.828411
0.544838 0.105677 0.826388
0.694244 0.104725 0.824564
0.825978 0.103896 0.822966
0.939924 0.103230 0.821501
1.000000 0.102771 0.820403
0.000000 0.232326 0.826995
0.103152 0.231657 0.826591
0.229934 0.230771 0.826025
0.379518 0.229771 0.824163
0.543942 0.228685 0.822128
0.693594 0.227710 0.820294
0.825536 0.226864 0.818678
0.939573 0.226215 0.817138
1.000000 0.225782 0.816018
0.000000 0.377177 0.821125
0.101675 0.376598 0.820600
0.228307 0.375820 0.819888
0.377874 0.374791 0.818921
0.542616 0.373675 0.816871
0.692557 0.372672 0.815023
0.824743 0.371807 0.813383
0.938936 0.371159 0.811806
1.000000 0.370749 0.810690
0.000000 0.537206 0.814851
0.100196 0.536727 0.814191
0.226662 0.536068 0.813316
0.376033 0.535179 0.812174
0.540803 0.534060 0.810754
0.691066 0.533026 0.808890
0.823527 0.532137 0.807230
0.937946 0.531468 0.805671
1.000000 0.531077 0.804591
0.000000 0.683596 0.809306
0.098984 0.683208 0.808521
0.225296 0.682659 0.807496
0.374488 0.681898 0.806175
0.539062 0.680919 0.804583
0.689380 0.679899 0.802990
0.822108 0.678982 0.801325
0.936732 0.678290 0.799828
1.000000 0.677939 0.798815
0.000000 0.812998 0.804557
0.098033 0.812688 0.803659
0.224218 0.812234 0.802497
0.373257 0.811587 0.801017
0.537656 0.810733 0.799250
0.687807 0.809828 0.797515
0.820568 0.808935 0.795951
0.934344 0.808478 0.795014
1.000000 0.808300 0.794353
0.000000 0.925367 0.800546
0.097417 0.925094 0.799542
0.223584 0.924695 0.798264
0.372546 0.924126 0.796663
0.536791 0.923379 0.794782
0.686738 0.922587 0.792960
0.819340 0.921790 0.791301
0.934228 0.921002 0.790704
1.000000 0.920813 0.792017
0.000000 1.000000 0.797517
0.097250 1.000000 0.796461
0.223418 1.000000 0.795128
0.372348 1.000000 0.793471
0.536519 1.000000 0.791541
0.686363 1.000000 0.789686
0.818867 1.000000 0.788027
0.933841 1.000000 0.786796
1.000000 1.000000 0.786703
0.000397 0.007165 0.950304
0.105561 0.006471 0.949056
0.232225 0.005651 0.947475
0.381365 0.004697 0.945630
0.545300 0.003661 0.943621
0.694505 0.002731 0.941810
0.826065 0.001921 0.940227
0.939975 0.001227 0.938866
1.000000 0.000743 0.937811
0.000000 0.109055 0.945966
0.104395 0.108311 0.945684
0.231209 0.107477 0.944139
0.380530 0.106509 0.942292
0.544664 0.105458 0.940280
0.694050 0.104515 0.938467
0.825770 0.103693 0.936881
0.939816 0.102990 0.935515
1.000000 0.102534 0.934412
0.000000 0.232088 0.940849
0.103061 0.231414 0.940482
0.229823 0.230531 0.939973
0.379363 0.229547 0.938127
0.543738 0.228479 0.936112
0.693344 0.227519 0.934295
0.825258 0.226683 0.932706
0.939463 0.225971 0.931328
1.000000 0.225542 0.930191
0.000000 0.376948 0.934994
0.101614 0.376356 0.934526
0.228249 0.375573 0.933894
0.377764 0.374553 0.933034
0.542423 0.373464 0.931013
0.692289 0.372485 0.929190
0.824433 0.371632 0.927597
0.938823 0.370910 0.926202
1.000000 0.370502 0.925058
0.000000 0.536988 0.928738
0.100170 0.536487 0.928157
0.226664 0.535813 0.927388
0.376012 0.534921 0.926387
0.540686 0.533819 0.925135
0.690840 0.532818 0.923306
0.823237 0.531946 0.921706
0.937837 0.531211 0.920297
1.000000 0.530816 0.919182
0.000000 0.683387 0.923210
0.098991 0.682969 0.922524
0.225354 0.682396 0.921629
0.374550 0.681622 0.920479
0.539056 0.680647 0.919092
0.689249 0.679648 0.917694
0.821879 0.678758 0.916089
0.936680 0.678009 0.914676
1.000000 0.677618 0.913618
0.000000 0.812797 0.918477
0.098060 0.812454 0.917698
0.224308 0.811969 0.916691
0.373369 0.811300 0.915407
0.537727 0.810439 0.913874
0.687786 0.809543 0.912368
0.820467 0.808665 0.910938
0.935457 0.807897 0.909534
1.000000 0.807513 0.908542
0.000000 0.925178 0.914483
0.097348 0.924896 0.913620
0.223505 0.924486 0.912512
0.372455 0.923905 0.911111
0.536687 0.923144 0.909450
0.686623 0.922340 0.907829
0.819191 0.921543 0.906313
0.934195 0.920794 0.905016
1.000000 0.920547 0.904370
0.000000 1.000000 0.911463
0.097189 1.000000 0.910538
0.223348 1.000000 0.909362
0.372269 1.000000 0.907890
0.536428 1.000000 0.906163
0.686262 1.000000 0.904493
0.818713 1.000000 0.902942
0.933665 1.000000 0.901569
1.000000 1.000000 0.901009
0.000332 0.006991 1.000000
0.105496 0.006299 1.000000
0.232160 0.005480 1.000000
0.381300 0.004526 1.000000
0.545234 0.003491 1.000000
0.694439 0.002563 1.000000
0.825999 0.001753 1.000000
0.939909 0.001060 1.000000
1.000000 0.000575 1.000000
0.000000 0.108883 1.000000
0.104332 0.108139 1.000000
0.231136 0.107308 1.000000
0.380445 0.106345 1.000000
0.544565 0.105299 1.000000
0.693939 0.104360 1.000000
0.825648 0.103542 1.000000
0.939687 0.102842 1.000000
1.000000 0.102361 1.000000
0.000000 0.231918 1.000000
0.103010 0.231240 1.000000
0.229761 0.230359 1.000000
0.379273 0.229383 1.000000
0.543617 0.228325 1.000000
0.693195 0.227374 1.000000
0.825084 0.226545 1.000000
0.939279 0.225836 1.000000
1.000000 0.225362 1.000000
0.000000 0.376781 1.000000
0.101579 0.376180 1.000000
0.228215 0.375393 1.000000
0.377698 0.374378 1.000000
0.542306 0.373304 1.000000
0.692124 0.372339 1.000000
0.824225 0.371498 1.000000
0.938603 0.370778 1.000000
1.000000 0.370314 1.000000
0.000000 0.536824 1.000000
0.100154 0.536309 1.000000
0.226665 0.535625 1.000000
0.375998 0.534730 1.000000
0.540612 0.533637 1.000000
0.690695 0.532657 1.000000
0.823029 0.531802 1.000000
0.937611 0.531069 1.000000
1.000000 0.530620 1.000000
0.000000 0.683226 1.000000
0.098994 0.682789 1.000000
0.225389 0.682199 1.000000
0.374587 0.681415 1.000000
0.539050 0.680442 1.000000
0.689162 0.679457 1.000000
0.821710 0.678589 1.000000
0.936476 0.677846 1.000000
1.000000 0.677412 1.000000
0.000000 0.812639 1.000000
0.098081 0.812271 1.000000
0.224375 0.811765 1.000000
0.373454 0.811079 1.000000
0.537786 0.810213 1.000000
0.687777 0.809323 1.000000
0.820364 0.808461 1.000000
0.935294 0.807708 1.000000
1.000000 0.807289 1.000000
0.000000 0.925022 1.000000
0.097374 0.924714 1.000000
0.223580 0.924280 1.000000
0.372555 0.923679 1.000000
0.536774 0.922907 1.000000
0.686661 0.922102 1.000000
0.819157 0.921312 1.000000
0.934131 0.920569 1.000000
1.000000 0.920167 1.000000
0.000000 1.000000 1.000000
0.097142 1.000000 1.000000
0.223293 1.000000 1.000000
0.372204 1.000000 1.000000
0.536352 1.000000 1.000000
0.686177 1.000000 1.000000
0.818620 1.000000 1.000000
0.933549 1.000000 0.999404
1.000000 1.000000 0.998745
