assets/luts/kuehl_klar.cube
TITLE "Kuehl Klar"
# Kuehler, klarer, mehr Kontrast, weniger Farbe. Passt zu weissen Flaechen, Technik und hartem Licht. Vorsicht bei blasser Haut, die wird hier schnell fahl.
# erzeugt von tools/make_lut.py aus assets/luts/looks.json (kuehl_klar)
LUT_3D_SIZE 5
DOMAIN_MIN 0.0 0.0 0.0
DOMAIN_MAX 1.0 1.0 1.0
0.000185 0.002965 0.023409
0.182399 0.004530 0.023497
0.505486 0.006868 0.023262
0.796534 0.009004 0.023222
0.970199 0.010297 0.023303
0.006919 0.196961 0.024948
0.190298 0.199021 0.024984
0.519315 0.200407 0.017909
0.812501 0.201930 0.018723
0.986619 0.203092 0.019421
0.018391 0.527213 0.030181
0.205375 0.529326 0.031523
0.524249 0.533257 0.031148
0.818869 0.535726 0.020193
0.995069 0.536237 0.016605
0.031134 0.821450 0.037653
0.218215 0.823661 0.039459
0.536726 0.827542 0.042455
0.824011 0.831370 0.041271
0.993765 0.833446 0.035462
0.038233 0.986388 0.042973
0.225237 0.988359 0.045053
0.543664 0.991761 0.048672
0.830387 0.994990 0.050732
0.997011 0.997011 0.048747
0.000872 0.003654 0.212771
0.182054 0.005593 0.213055
0.501476 0.008912 0.214025
0.790537 0.011542 0.215046
0.963477 0.013009 0.215618
0.007607 0.197670 0.214426
0.191285 0.199675 0.214917
0.512428 0.202589 0.216026
0.803179 0.204868 0.216631
0.976714 0.206235 0.217077
0.019081 0.527955 0.219857
0.207267 0.529685 0.222131
0.524973 0.533828 0.223215
0.820834 0.535850 0.213153
0.996067 0.536338 0.212202
0.031991 0.822224 0.227501
0.220300 0.823954 0.230528
0.538162 0.827991 0.234019
0.824652 0.831963 0.233859
0.994497 0.834046 0.227388
0.039067 0.987079 0.232920
0.227369 0.988533 0.236305
0.545248 0.992065 0.240276
0.831391 0.995387 0.243147
0.997493 0.997493 0.241535
0.002038 0.004826 0.534143
0.183664 0.006777 0.534485
0.502683 0.010236 0.535452
0.790055 0.013375 0.536596
0.961655 0.015225 0.537426
0.008774 0.198876 0.535996
0.192890 0.201002 0.535361
0.510684 0.204864 0.537140
0.797675 0.208116 0.539367
0.969362 0.209952 0.540719
0.020570 0.529222 0.541765
0.208840 0.531076 0.542742
0.526522 0.535082 0.545456
0.815144 0.538031 0.547710
0.985876 0.539575 0.548827
0.033440 0.823542 0.549696
0.221805 0.825351 0.551905
0.540681 0.829002 0.556429
0.825901 0.833135 0.558598
0.996862 0.834855 0.551904
0.040476 0.988251 0.555281
0.228822 0.989763 0.557994
0.547993 0.992782 0.563281
0.833298 0.996237 0.567341
0.998449 0.998449 0.566967
0.003064 0.005863 0.817135
0.185068 0.007826 0.817531
0.504075 0.011299 0.818583
0.791383 0.014468 0.819773
0.962826 0.016375 0.820601
0.009803 0.199943 0.819162
0.194267 0.202105 0.818313
0.512442 0.205876 0.820060
0.798993 0.209310 0.821940
0.970237 0.211280 0.823366
0.021889 0.530342 0.825227
0.209806 0.532371 0.825620
0.527941 0.536392 0.827045
0.813205 0.540278 0.830066
0.981343 0.542427 0.832209
0.034711 0.824707 0.833411
0.223110 0.826589 0.834905
0.542067 0.830359 0.838204
0.827229 0.834363 0.841987
0.994224 0.836331 0.844057
0.041711 0.989283 0.839143
0.230096 0.990845 0.841264
0.549334 0.993951 0.845542
0.835078 0.997227 0.850108
0.999421 0.999421 0.851855
0.003567 0.006374 0.955567
0.185792 0.008349 0.957469
0.504799 0.011838 0.960857
0.792107 0.015022 0.963910
0.963540 0.016940 0.965733
0.010323 0.200488 0.962323
0.194989 0.202668 0.962571
0.513274 0.206423 0.966055
0.799925 0.209842 0.969260
0.970965 0.211900 0.971174
0.022596 0.530938 0.973827
0.210410 0.533022 0.974643
0.528674 0.537053 0.976480
0.814213 0.540874 0.979899
0.981935 0.543138 0.981935
0.035391 0.825337 0.984092
0.223593 0.827309 0.985411
0.542521 0.831149 0.988105
0.827987 0.835126 0.991014
0.993147 0.837575 0.993147
0.042375 0.989831 0.989831
0.230780 0.991419 0.991419
0.550049 0.994568 0.994568
0.835821 0.997881 0.997881
1.000000 1.000000 1.000000
