assets/luts/kuehl_klar.cube
TITLE "Kuehl Klar"
# Kuehler, klarer, mehr Kontrast, weniger Farbe. Passt zu weissen Flaechen, Technik und hartem Licht. Vorsicht bei blasser Haut, die wird hier schnell fahl.
# erzeugt von tools/make_lut.py aus assets/luts/looks.json (kuehl_klar)
LUT_3D_SIZE 9
DOMAIN_MIN 0.0 0.0 0.0
DOMAIN_MAX 1.0 1.0 1.0
0.000185 0.002965 0.023409
0.070635 0.003676 0.023478
0.182399 0.004530 0.023497
0.328818 0.005589 0.023381
0.505486 0.006868 0.023262
0.665688 0.008039 0.023213
0.796534 0.009004 0.023222
0.898029 0.009758 0.023259
0.970199 0.010297 0.023303
0.002943 0.082444 0.023902
0.074314 0.083205 0.024070
0.188217 0.083726 0.021264
0.335630 0.084489 0.021371
0.512521 0.085697 0.021572
0.672771 0.086856 0.021738
0.803627 0.087823 0.021894
0.905121 0.088583 0.022037
0.977287 0.089127 0.022152
0.006919 0.196961 0.024948
0.079798 0.197713 0.025326
0.190298 0.199021 0.024984
0.339074 0.199988 0.019373
0.519315 0.200407 0.017909
0.681022 0.201152 0.018243
0.812501 0.201930 0.018723
0.914298 0.202596 0.019127
0.986619 0.203092 0.019421
0.012127 0.346923 0.026917
0.086745 0.347712 0.027394
0.197228 0.348968 0.027935
0.341806 0.350744 0.027102
0.520468 0.352258 0.019944
0.684787 0.352666 0.016384
0.818384 0.352984 0.015556
0.921491 0.353329 0.015568
0.994303 0.353628 0.015770
0.018391 0.527213 0.030181
0.094897 0.528050 0.030780
0.205375 0.529326 0.031523
0.349796 0.531025 0.032411
0.524249 0.533257 0.031148
0.685218 0.534986 0.024905
0.818869 0.535726 0.020193
0.922990 0.536055 0.017732
0.995069 0.536237 0.016605
0.025381 0.689372 0.033977
0.102060 0.690239 0.034665
0.212516 0.691540 0.035574
0.356927 0.693256 0.036782
0.531066 0.695404 0.037819
0.689359 0.697514 0.036180
0.820265 0.699102 0.031549
0.923097 0.700003 0.027531
0.993475 0.700458 0.025056
0.031134 0.821450 0.037653
0.107780 0.822340 0.038415
0.218215 0.823661 0.039459
0.362603 0.825401 0.040862
0.536726 0.827542 0.042455
0.694611 0.829594 0.043003
0.824011 0.831370 0.041271
0.925283 0.832683 0.038022
0.993765 0.833446 0.035462
0.035501 0.923384 0.040845
0.112124 0.924290 0.041669
0.222542 0.925628 0.042817
0.366909 0.927389 0.044361
0.541018 0.929543 0.046211
0.698849 0.931568 0.047483
0.827863 0.933319 0.047397
0.928325 0.934725 0.045803
0.995473 0.935643 0.043861
0.038233 0.986388 0.042973
0.114839 0.987185 0.043838
0.225237 0.988359 0.045053
0.369579 0.989895 0.046687
0.543664 0.991761 0.048672
0.701470 0.993498 0.050222
0.830387 0.994990 0.050732
0.930588 0.996201 0.050031
0.997011 0.997011 0.048747
0.000466 0.003247 0.101057
0.070894 0.004002 0.101098
0.181531 0.005169 0.101351
0.326767 0.006531 0.101739
0.502715 0.007981 0.102076
0.662573 0.009229 0.102297
0.793241 0.010233 0.102463
0.894635 0.011010 0.102598
0.966746 0.011562 0.102700
0.003225 0.082730 0.101570
0.074772 0.083493 0.101533
0.185407 0.084656 0.101998
0.331653 0.085768 0.102113
0.508250 0.087080 0.102168
0.668406 0.088277 0.102260
0.799221 0.089262 0.102380
0.900692 0.090032 0.102504
0.972846 0.090582 0.102608
0.007201 0.197252 0.102644
0.080496 0.197896 0.103177
0.190655 0.199241 0.103483
0.339694 0.199999 0.099196
0.517951 0.200838 0.099448
0.678476 0.201915 0.099983
0.809391 0.202869 0.100407
0.910894 0.203631 0.100736
0.983055 0.204182 0.100974
0.012409 0.347220 0.104650
0.087542 0.347850 0.105477
0.197908 0.349121 0.106237
0.342115 0.350960 0.105882
0.521254 0.352332 0.098758
0.685261 0.352694 0.096593
0.818129 0.353148 0.096591
0.920657 0.353627 0.096988
0.993017 0.354021 0.097363
0.018674 0.527517 0.107959
0.095757 0.528163 0.109017
0.206172 0.529443 0.109917
0.350390 0.531190 0.110955
0.524533 0.533477 0.110080
0.685701 0.535184 0.103507
0.819642 0.535804 0.099145
0.923766 0.536079 0.097221
0.995664 0.536255 0.096487
0.025739 0.689683 0.111794
0.102956 0.690340 0.113002
0.213366 0.691644 0.114034
0.357616 0.693402 0.115319
0.531560 0.695586 0.116594
0.689625 0.697742 0.115202
0.820576 0.699346 0.110302
0.923607 0.700195 0.106219
0.994059 0.700601 0.103840
0.031485 0.821767 0.115501
0.108696 0.822434 0.116818
0.219090 0.823760 0.117964
0.363341 0.825537 0.119425
0.537307 0.827714 0.121151
0.695023 0.829792 0.121955
0.824266 0.831604 0.120354
0.925529 0.832938 0.116927
0.994030 0.833693 0.114256
0.035848 0.923706 0.118718
0.113050 0.924383 0.120115
0.223430 0.925725 0.121354
0.367674 0.927519 0.122948
0.541643 0.929708 0.124893
0.699339 0.931758 0.126347
0.828214 0.933532 0.126462
0.928571 0.934964 0.124928
0.995649 0.935899 0.122889
0.038576 0.986671 0.120862
0.115767 0.987235 0.122309
0.226130 0.988411 0.123610
0.370357 0.989978 0.125290
0.544308 0.991876 0.127355
0.701992 0.993635 0.129051
0.830788 0.995145 0.129748
0.930881 0.996376 0.129167
0.997201 0.997201 0.127893
0.000872 0.003654 0.212771
0.071462 0.004409 0.212818
0.182054 0.005593 0.213055
0.326690 0.007138 0.213436
0.501476 0.008912 0.214025
0.660435 0.010396 0.214596
0.790537 0.011542 0.215046
0.891579 0.012405 0.215383
0.963477 0.013009 0.215618
0.003630 0.083141 0.213311
0.075319 0.083944 0.212934
0.185503 0.085254 0.213297
0.329941 0.086842 0.214051
0.505050 0.088522 0.214884
0.664456 0.089893 0.215497
0.794886 0.090965 0.215929
0.896142 0.091781 0.216244
0.968172 0.092358 0.216464
0.007607 0.197670 0.214426
0.081045 0.198364 0.214489
0.191285 0.199675 0.214917
0.336115 0.201180 0.215660
0.512428 0.202589 0.216026
0.672448 0.203843 0.216341
0.803179 0.204868 0.216631
0.904596 0.205665 0.216883
0.976714 0.206235 0.217077
0.012816 0.347647 0.216485
0.088100 0.348302 0.217034
0.198850 0.349434 0.218055
0.342614 0.351322 0.218569
0.522361 0.352351 0.213087
0.684532 0.353020 0.213317
0.815927 0.353842 0.214037
0.917592 0.354561 0.214627
0.989358 0.355095 0.215042
0.019081 0.527955 0.219857
0.096296 0.528618 0.220732
0.207267 0.529685 0.222131
0.351273 0.531475 0.223406
0.524973 0.533828 0.223215
0.686618 0.535419 0.216415
0.820834 0.535850 0.213153
0.924649 0.536112 0.212291
0.996067 0.536338 0.212202
0.026253 0.690132 0.223749
0.103481 0.690802 0.224816
0.214536 0.691854 0.226466
0.358629 0.693645 0.227919
0.532305 0.695882 0.229497
0.690033 0.698095 0.228568
0.821120 0.699697 0.223321
0.924509 0.700434 0.219314
0.995058 0.700756 0.217243
0.031991 0.822224 0.227501
0.109209 0.822902 0.228701
0.220300 0.823954 0.230528
0.364422 0.825758 0.232133
0.538162 0.827991 0.234019
0.695648 0.830102 0.235204
0.824652 0.831963 0.233859
0.925929 0.833320 0.230190
0.994497 0.834046 0.227388
0.036346 0.924169 0.230753
0.113555 0.924856 0.232047
0.224662 0.925912 0.234002
0.368794 0.927730 0.235728
0.542557 0.929972 0.237788
0.700069 0.932055 0.239489
0.828745 0.933858 0.239934
0.928943 0.935327 0.238523
0.995927 0.936284 0.236355
0.039067 0.987079 0.232920
0.116265 0.987651 0.234271
0.227369 0.988533 0.236305
0.371492 0.990118 0.238111
0.545248 0.992065 0.240276
0.702763 0.993856 0.242163
0.831391 0.995387 0.243147
0.931324 0.996645 0.242779
0.997493 0.997493 0.241535
0.001402 0.004187 0.359059
0.072196 0.004945 0.359118
0.182791 0.006131 0.359369
0.327393 0.007690 0.359749
0.501838 0.009574 0.360301
0.660136 0.011255 0.360911
0.789602 0.012582 0.361480
0.890153 0.013580 0.361949
0.961719 0.014274 0.362293
0.004162 0.083680 0.359637
0.076040 0.084501 0.359144
0.186392 0.085769 0.359463
0.330664 0.087429 0.360032
0.504967 0.089346 0.360949
0.663303 0.091014 0.361816
0.792893 0.092309 0.362542
0.893576 0.093274 0.363103
0.965245 0.093943 0.363498
0.008138 0.198218 0.360805
0.081614 0.198987 0.360603
0.192027 0.200302 0.360516
0.335826 0.202112 0.361316
0.509829 0.204118 0.362617
0.668371 0.205735 0.363738
0.798311 0.206945 0.364564
0.899287 0.207842 0.365155
0.971157 0.208467 0.365556
0.013348 0.348207 0.362933
0.088806 0.348901 0.363126
0.199587 0.350082 0.363610
0.343405 0.351912 0.364578
0.518239 0.353739 0.365712
0.677944 0.355103 0.366365
0.808500 0.356197 0.366896
0.909808 0.357042 0.367325
0.981259 0.357637 0.367639
0.019749 0.528531 0.366391
0.097000 0.529216 0.367022
0.207996 0.530314 0.368070
0.352421 0.531949 0.369685
0.525613 0.534347 0.370601
0.688264 0.535543 0.364800
0.821571 0.535963 0.364360
0.924023 0.536485 0.364958
0.994384 0.536925 0.365500
0.026926 0.690721 0.370354
0.104166 0.691407 0.371237
0.215240 0.692484 0.372622
0.359932 0.694045 0.374631
0.533326 0.696338 0.376543
0.690611 0.698603 0.376443
0.822105 0.700119 0.370886
0.926034 0.700628 0.367582
0.996544 0.700843 0.366368
0.032652 0.822823 0.374165
0.109880 0.823516 0.375212
0.220986 0.824589 0.376820
0.365806 0.826122 0.379095
0.539311 0.828408 0.381199
0.696523 0.830558 0.382855
0.825195 0.832470 0.382010
0.926565 0.833833 0.378044
0.995329 0.834479 0.375177
0.036998 0.924776 0.377463
0.114216 0.925476 0.378622
0.225335 0.926551 0.380384
0.370223 0.928074 0.382846
0.543781 0.930364 0.385096
0.701061 0.932494 0.387059
0.829493 0.934323 0.388002
0.929463 0.935838 0.386846
0.996343 0.936816 0.384517
0.039709 0.987612 0.379659
0.116915 0.988195 0.380885
0.228031 0.989093 0.382739
0.372939 0.990368 0.385314
0.546507 0.992354 0.387658
0.703802 0.994191 0.389742
0.832229 0.995743 0.391113
0.931944 0.997030 0.391115
0.997907 0.997907 0.389946
0.002038 0.004826 0.534143
0.073071 0.005589 0.534216
0.183664 0.006777 0.534485
0.328265 0.008339 0.534888
0.502683 0.010236 0.535452
0.660845 0.011965 0.536046
0.790055 0.013375 0.536596
0.890324 0.014461 0.537067
0.961655 0.015225 0.537426
0.004797 0.084327 0.534764
0.076903 0.085159 0.534225
0.187331 0.086409 0.534535
0.331705 0.088045 0.535099
0.505847 0.090032 0.535858
0.663911 0.091785 0.536735
0.793095 0.093203 0.537490
0.893368 0.094288 0.538102
0.964715 0.095049 0.538553
0.008774 0.198876 0.535996
0.082398 0.199683 0.535677
0.192890 0.201002 0.535361
0.336940 0.202749 0.536098
0.510684 0.204864 0.537140
0.668549 0.206678 0.538360
0.797675 0.208116 0.539367
0.897968 0.209200 0.540155
0.969362 0.209952 0.540719
0.013985 0.348880 0.538207
0.089481 0.349649 0.538186
0.200208 0.350887 0.538300
0.344300 0.352699 0.538688
0.517525 0.354986 0.540065
0.675037 0.356917 0.541617
0.804172 0.358365 0.542874
0.904643 0.359410 0.543812
0.975455 0.360115 0.544443
0.020570 0.529222 0.541765
0.097826 0.529936 0.542110
0.208840 0.531076 0.542742
0.353306 0.532759 0.543808
0.526522 0.535082 0.545456
0.684905 0.536826 0.546850
0.815144 0.538031 0.547710
0.916264 0.538947 0.548370
0.985876 0.539575 0.548827
0.027729 0.691427 0.545814
0.104984 0.692134 0.546477
0.216080 0.693240 0.547545
0.360801 0.694840 0.549140
0.534554 0.697001 0.551361
0.691374 0.699280 0.552551
0.824002 0.700387 0.547751
0.927577 0.700720 0.547265
0.996984 0.701060 0.547693
0.033440 0.823542 0.549696
0.110681 0.824252 0.550561
0.221805 0.825351 0.551905
0.366649 0.826917 0.553837
0.540681 0.829002 0.556429
0.697640 0.831192 0.558498
0.825901 0.833135 0.558598
0.927652 0.834416 0.554351
0.996862 0.834855 0.551904
0.037776 0.925504 0.553049
0.115005 0.926220 0.554047
0.226139 0.927318 0.555577
0.371048 0.928871 0.557737
0.545232 0.930920 0.560582
0.702288 0.933098 0.562794
0.830472 0.934944 0.564338
0.930133 0.936500 0.563721
0.996958 0.937485 0.561199
0.040476 0.988251 0.555281
0.117692 0.988847 0.556357
0.228822 0.989763 0.557994
0.373749 0.991062 0.560287
0.547993 0.992782 0.563281
0.705080 0.994661 0.565578
0.833298 0.996237 0.567341
0.932757 0.997539 0.567946
0.998449 0.998449 0.566967
0.002604 0.005398 0.690362
0.073848 0.006165 0.690449
0.184440 0.007355 0.690734
0.329039 0.008921 0.691158
0.503453 0.010822 0.691747
0.661600 0.012559 0.692355
0.790773 0.013984 0.692909
0.890980 0.015091 0.693375
0.962243 0.015879 0.693728
0.005364 0.084906 0.691023
0.077672 0.085745 0.690468
0.188134 0.086988 0.690782
0.332552 0.088614 0.691355
0.506748 0.090589 0.692124
0.664697 0.092393 0.692895
0.793801 0.093838 0.693656
0.893982 0.094953 0.694278
0.965232 0.095745 0.694732
0.009342 0.199464 0.692311
0.083125 0.200291 0.691944
0.193652 0.201613 0.691531
0.337816 0.203332 0.692251
0.511697 0.205414 0.693279
0.669360 0.207314 0.694286
0.798336 0.208798 0.695316
0.898455 0.209934 0.696134
0.969676 0.210738 0.696719
0.014553 0.349481 0.694597
0.090151 0.350286 0.694483
0.200852 0.351552 0.694435
0.345068 0.353358 0.694569
0.518541 0.355582 0.695888
0.675828 0.357609 0.697203
0.804580 0.359169 0.698523
0.904587 0.360346 0.699554
0.974862 0.361157 0.700274
0.021299 0.529840 0.698244
0.098424 0.530611 0.698440
0.209338 0.531808 0.698832
0.353831 0.533523 0.699542
0.527319 0.535822 0.700693
0.684159 0.538002 0.702354
0.812564 0.539685 0.703926
0.912507 0.540896 0.705156
0.981339 0.541681 0.705981
0.028443 0.692059 0.702369
0.105702 0.692787 0.702839
0.216809 0.693921 0.703627
0.361552 0.695556 0.704853
0.535343 0.697757 0.706627
0.692171 0.699968 0.708514
0.821192 0.701519 0.709977
0.922279 0.702460 0.710832
0.990421 0.703126 0.711428
0.034143 0.824184 0.706314
0.111395 0.824911 0.707016
0.222534 0.826031 0.708126
0.367399 0.827627 0.709752
0.541456 0.829748 0.711973
0.698639 0.831856 0.714235
0.826585 0.833773 0.715576
0.929325 0.834715 0.711806
0.998420 0.834953 0.711395
0.038468 0.926156 0.709717
0.115707 0.926886 0.710572
0.226855 0.928004 0.711894
0.371782 0.929583 0.713783
0.545988 0.931664 0.716302
0.703378 0.933718 0.718813
0.831411 0.935576 0.720722
0.930778 0.937138 0.720946
0.997741 0.938075 0.718240
0.041158 0.988821 0.711981
0.118383 0.989428 0.712923
0.229526 0.990360 0.714367
0.374469 0.991681 0.716407
0.548734 0.993427 0.719097
0.706210 0.995155 0.721751
0.834286 0.996751 0.723738
0.933563 0.998045 0.724971
0.998975 0.998975 0.724362
0.003064 0.005863 0.817135
0.074478 0.006633 0.817233
0.185068 0.007826 0.817531
0.329664 0.009394 0.817973
0.504075 0.011299 0.818583
0.662219 0.013039 0.819209
0.791383 0.014468 0.819773
0.891578 0.015582 0.820246
0.962826 0.016375 0.820601
0.005825 0.085377 0.817828
0.078295 0.086220 0.817267
0.188774 0.087461 0.817590
0.333214 0.089083 0.818173
0.507438 0.091053 0.818955
0.665411 0.092853 0.819737
0.794436 0.094331 0.820427
0.894580 0.095460 0.821049
0.965810 0.096259 0.821513
0.009803 0.199943 0.819162
0.083723 0.200781 0.818773
0.194267 0.202105 0.818313
0.338490 0.203811 0.819031
0.512442 0.205876 0.820060
0.670170 0.207761 0.821066
0.798993 0.209310 0.821940
0.899051 0.210466 0.822762
0.970237 0.211280 0.823366
0.015015 0.349970 0.821508
0.090714 0.350796 0.821348
0.201401 0.352076 0.821221
0.345680 0.353880 0.821226
0.519283 0.356073 0.822523
0.676688 0.358070 0.823823
0.805248 0.359711 0.824938
0.905160 0.360917 0.825987
0.975241 0.361748 0.826735
0.021889 0.530342 0.825227
0.098945 0.531144 0.825348
0.209806 0.532371 0.825620
0.354311 0.534106 0.826148
0.527941 0.536392 0.827045
0.684962 0.538527 0.828663
0.813205 0.540278 0.830066
0.912891 0.541565 0.831333
0.981343 0.542427 0.832209
0.029019 0.692573 0.829415
0.106184 0.693341 0.829785
0.217201 0.694521 0.830415
0.361912 0.696193 0.831412
0.535789 0.698403 0.832875
0.692814 0.700592 0.834447
0.820775 0.702443 0.836093
0.920217 0.703819 0.837504
0.987428 0.704698 0.838474
0.034711 0.824707 0.833411
0.111965 0.825448 0.833983
0.223110 0.826589 0.834905
0.367987 0.828209 0.836282
0.542067 0.830359 0.838204
0.699276 0.832491 0.840191
0.827229 0.834363 0.841987
0.926925 0.835693 0.843362
0.994224 0.836331 0.844057
0.039029 0.926685 0.836853
0.116275 0.927427 0.837592
0.227435 0.928562 0.838746
0.372376 0.930162 0.840416
0.546601 0.932269 0.842671
0.704007 0.934346 0.844942
0.832167 0.936160 0.846956
0.931336 0.937671 0.848287
0.998631 0.938433 0.846133
0.041711 0.989283 0.839143
0.118943 0.989900 0.839977
0.230096 0.990845 0.841264
0.375053 0.992183 0.843100
0.549334 0.993951 0.845542
0.706825 0.995698 0.847972
0.835078 0.997227 0.850108
0.934277 0.998507 0.851703
0.999421 0.999421 0.851855
0.003418 0.006221 0.914458
0.074960 0.006994 0.914564
0.185548 0.008188 0.914873
0.330142 0.009758 0.915328
0.504551 0.011665 0.915954
0.662693 0.013408 0.916595
0.791855 0.014839 0.917170
0.892045 0.015955 0.917649
0.963288 0.016751 0.918008
0.006178 0.085739 0.915175
0.078772 0.086586 0.914613
0.189260 0.087825 0.914944
0.333713 0.089445 0.915536
0.507952 0.091414 0.916329
0.665939 0.093211 0.917121
0.794975 0.094688 0.917820
0.895066 0.095839 0.918395
0.966273 0.096647 0.918853
0.010157 0.200311 0.916545
0.084184 0.201156 0.916144
0.194738 0.202482 0.915660
0.338994 0.204181 0.916380
0.512987 0.206237 0.917413
0.670751 0.208114 0.918423
0.799604 0.209656 0.919301
0.899554 0.210857 0.920013
0.970703 0.211685 0.920608
0.015369 0.350346 0.918937
0.091153 0.351184 0.918753
0.201832 0.352474 0.918581
0.346147 0.354276 0.918516
0.519823 0.356452 0.919804
0.677295 0.358433 0.921100
0.805910 0.360060 0.922211
0.905674 0.361328 0.923104
0.975616 0.362175 0.923846
0.022342 0.530729 0.922712
0.099357 0.531548 0.922791
0.210186 0.532794 0.922995
0.354698 0.534539 0.923422
0.528409 0.536819 0.924178
0.685534 0.538929 0.925774
0.813862 0.540658 0.927165
0.913404 0.542005 0.928276
0.981717 0.542886 0.929159
0.029461 0.692969 0.926948
0.106571 0.693760 0.927261
0.217537 0.694967 0.927803
0.362227 0.696660 0.928671
0.536153 0.698877 0.929959
0.693291 0.701053 0.931354
0.821364 0.702876 0.932972
0.920707 0.704295 0.934278
0.987700 0.705217 0.935259
0.035143 0.825110 0.930983
0.112331 0.825879 0.931487
0.223408 0.827053 0.932303
0.368244 0.828704 0.933530
0.542345 0.830870 0.935249
0.699644 0.833000 0.937035
0.827718 0.834856 0.938653
0.926900 0.836333 0.940107
0.992925 0.837297 0.941149
0.039458 0.927093 0.934455
0.116705 0.927844 0.935106
0.227868 0.928994 0.936133
0.372816 0.930612 0.937636
0.547054 0.932739 0.939687
0.704475 0.934833 0.941773
0.832652 0.936659 0.943636
0.931830 0.938148 0.945179
0.997321 0.939108 0.946229
0.042135 0.989638 0.936765
0.119372 0.990262 0.937515
0.230533 0.991218 0.938682
0.375500 0.992569 0.940360
0.549793 0.994352 0.942613
0.707296 0.996114 0.944871
0.835558 0.997655 0.946867
0.934816 0.998914 0.948509
0.999780 0.999780 0.949493
0.003567 0.006374 0.955567
0.075202 0.007151 0.956295
0.185792 0.008349 0.957469
0.330388 0.009925 0.959005
0.504799 0.011838 0.960857
0.662943 0.013586 0.962538
0.792107 0.015022 0.963910
0.892297 0.016141 0.964976
0.963540 0.016940 0.965733
0.006335 0.085902 0.958335
0.079018 0.086753 0.958334
0.189512 0.087995 0.959449
0.333972 0.089619 0.961016
0.508220 0.091591 0.962907
0.666216 0.093392 0.964621
0.795259 0.094871 0.966022
0.895355 0.096024 0.967108
0.966531 0.096846 0.967882
0.010323 0.200488 0.962323
0.084430 0.201338 0.962400
0.194989 0.202668 0.962571
0.339261 0.204367 0.964111
0.513274 0.206423 0.966055
0.671056 0.208300 0.967819
0.799925 0.209842 0.969260
0.899886 0.211043 0.970378
0.970965 0.211900 0.971174
0.015546 0.350538 0.967546
0.091397 0.351383 0.967728
0.202073 0.352680 0.968051
0.346405 0.354485 0.968575
0.520116 0.356656 0.970529
0.677619 0.358632 0.972358
0.806260 0.360255 0.973852
0.906044 0.361520 0.975011
0.975822 0.362408 0.975822
0.022596 0.530938 0.973827
0.099594 0.531766 0.974138
0.210410 0.533022 0.974643
0.354926 0.534774 0.975406
0.528674 0.537053 0.976480
0.685846 0.539153 0.978341
0.814213 0.540874 0.979899
0.913785 0.542214 0.981107
0.981935 0.543138 0.981935
0.029713 0.693189 0.979483
0.106798 0.693992 0.979907
0.217740 0.695211 0.980576
0.362421 0.696916 0.981553
0.536369 0.699137 0.982886
0.693559 0.701308 0.984240
0.821683 0.703119 0.985828
0.921064 0.704527 0.987081
0.987925 0.705484 0.987925
0.035391 0.825337 0.984092
0.112548 0.826119 0.984608
0.223593 0.827309 0.985411
0.368409 0.828975 0.986562
0.542521 0.831149 0.988105
0.699859 0.833277 0.989649
0.827987 0.835126 0.991014
0.927215 0.836591 0.992290
0.993147 0.837575 0.993147
0.039702 0.927324 0.987650
0.116914 0.928090 0.988238
0.228038 0.929257 0.989143
0.372959 0.930892 0.990428
0.547196 0.933030 0.992133
0.704649 0.935125 0.993825
0.832872 0.936947 0.995310
0.932099 0.938428 0.996525
0.997389 0.939434 0.997389
0.042375 0.989831 0.989831
0.119615 0.990458 0.990458
0.230780 0.991419 0.991419
0.375751 0.992777 0.992777
0.550049 0.994568 0.994568
0.707555 0.996335 0.996335
0.835821 0.997881 0.997881
0.935080 0.999143 0.999143
1.000000 1.000000 1.000000
