assets/luts/kuehl_klar.cube
TITLE "Kuehl Klar"
# Kuehler, klarer, mehr Kontrast, weniger Farbe. Passt zu weissen Flaechen, Technik und hartem Licht. Vorsicht bei blasser Haut, die wird hier schnell fahl.
# erzeugt von tools/make_lut.py aus assets/luts/looks.json (kuehl_klar)
LUT_3D_SIZE 33
DOMAIN_MIN 0.0 0.0 0.0
DOMAIN_MAX 1.0 1.0 1.0
0.000185 0.002965 0.023409
0.009855 0.003072 0.023340
0.027950 0.003268 0.023379
0.048185 0.003473 0.023430
0.070635 0.003676 0.023478
0.095300 0.003877 0.023508
0.122158 0.004084 0.023518
0.151194 0.004301 0.023513
0.182399 0.004530 0.023497
0.215766 0.004772 0.023474
0.251293 0.005029 0.023445
0.288978 0.005301 0.023414
0.328818 0.005589 0.023381
0.370814 0.005892 0.023347
0.414964 0.006211 0.023315
0.460849 0.006544 0.023286
0.505486 0.006868 0.023262
0.548289 0.007180 0.023242
0.589257 0.007479 0.023228
0.628390 0.007765 0.023219
0.665688 0.008039 0.023213
0.701151 0.008299 0.023211
0.734780 0.008547 0.023212
0.766574 0.008782 0.023216
0.796534 0.009004 0.023222
0.824659 0.009212 0.023229
0.850950 0.009407 0.023238
0.875407 0.009589 0.023249
0.898029 0.009758 0.023259
0.918818 0.009913 0.023271
0.937772 0.010054 0.023282
0.954892 0.010182 0.023293
0.970199 0.010297 0.023303
0.000766 0.019703 0.023497
0.010705 0.019799 0.023430
0.028727 0.020016 0.023482
0.049094 0.020184 0.023514
0.071695 0.020350 0.023497
0.096463 0.020527 0.023466
0.123390 0.020719 0.023430
0.152472 0.020927 0.023390
0.183709 0.021149 0.023348
0.217100 0.021388 0.023306
0.252645 0.021642 0.023264
0.290342 0.021912 0.023223
0.330193 0.022199 0.023183
0.372196 0.022502 0.023146
0.416352 0.022821 0.023112
0.462242 0.023153 0.023082
0.506885 0.023477 0.023058
0.549692 0.023789 0.023040
0.590663 0.024088 0.023028
0.629799 0.024375 0.023020
0.667100 0.024648 0.023017
0.702565 0.024909 0.023018
0.736196 0.025157 0.023022
0.767992 0.025392 0.023028
0.797953 0.025614 0.023037
0.826079 0.025823 0.023048
0.852371 0.026019 0.023059
0.876829 0.026201 0.023072
0.899452 0.026370 0.023085
0.920241 0.026525 0.023099
0.939196 0.026667 0.023112
0.956316 0.026795 0.023125
0.971624 0.026910 0.023137
0.001416 0.038457 0.023605
0.011631 0.038542 0.023601
0.029718 0.038736 0.023699
0.050202 0.038934 0.023104
0.073234 0.038991 0.022894
0.098136 0.039125 0.022905
0.125106 0.039301 0.022912
0.154205 0.039501 0.022906
0.185447 0.039721 0.022889
0.218840 0.039958 0.022867
0.254385 0.040212 0.022842
0.292082 0.040482 0.022816
0.331932 0.040769 0.022789
0.373934 0.041072 0.022765
0.418088 0.041392 0.022742
0.463977 0.041726 0.022724
0.508617 0.042051 0.022711
0.551421 0.042364 0.022703
0.592390 0.042665 0.022700
0.631524 0.042952 0.022701
0.668822 0.043227 0.022706
0.704286 0.043489 0.022714
0.737914 0.043739 0.022725
0.769709 0.043975 0.022738
0.799668 0.044198 0.022753
0.827793 0.044407 0.022769
0.854083 0.044604 0.022786
0.878540 0.044787 0.022804
0.901162 0.044956 0.022821
0.921950 0.045112 0.022839
0.940903 0.045254 0.022856
0.958023 0.045383 0.022872
0.973330 0.045499 0.022887
0.002141 0.059345 0.023739
0.012638 0.059429 0.023765
0.030765 0.059609 0.023879
0.050895 0.059850 0.023908
0.073493 0.060102 0.023061
0.098905 0.060164 0.022298
0.126336 0.060225 0.022096
0.155708 0.060346 0.022080
0.187107 0.060516 0.022106
0.220592 0.060722 0.022135
0.256192 0.060956 0.022158
0.293924 0.061213 0.022175
0.333796 0.061491 0.022187
0.375813 0.061788 0.022197
0.419977 0.062104 0.022205
0.465872 0.062435 0.022214
0.510515 0.062759 0.022224
0.553320 0.063071 0.022236
0.594290 0.063371 0.022251
0.633424 0.063659 0.022268
0.670722 0.063934 0.022287
0.706185 0.064196 0.022308
0.739813 0.064446 0.022330
0.771606 0.064682 0.022354
0.801565 0.064906 0.022378
0.829689 0.065116 0.022403
0.855979 0.065313 0.022428
0.880434 0.065496 0.022453
0.903055 0.065666 0.022477
0.923842 0.065822 0.022501
0.942795 0.065965 0.022523
0.959915 0.066095 0.022544
0.975221 0.066210 0.022564
0.002943 0.082444 0.023902
0.013744 0.082528 0.023949
0.031887 0.082704 0.024068
0.052042 0.082936 0.024127
0.074314 0.083205 0.024070
0.099051 0.083491 0.023091
0.126609 0.083606 0.021993
0.156421 0.083650 0.021452
0.188217 0.083726 0.021264
0.221992 0.083853 0.021234
0.257793 0.084028 0.021264
0.295663 0.084242 0.021315
0.335630 0.084489 0.021371
0.377714 0.084764 0.021425
0.421926 0.085063 0.021476
0.467855 0.085381 0.021526
0.512521 0.085697 0.021572
0.555343 0.086003 0.021615
0.596325 0.086298 0.021657
0.635467 0.086583 0.021698
0.672771 0.086856 0.021738
0.708239 0.087117 0.021778
0.741870 0.087365 0.021817
0.773666 0.087600 0.021856
0.803627 0.087823 0.021894
0.831752 0.088033 0.021932
0.858043 0.088230 0.021968
0.882499 0.088413 0.022003
0.905121 0.088583 0.022037
0.925908 0.088739 0.022069
0.944861 0.088882 0.022099
0.961981 0.089011 0.022126
0.977287 0.089127 0.022152
0.003822 0.107754 0.024099
0.014951 0.107840 0.024163
0.033099 0.108015 0.024283
0.053267 0.108243 0.024346
0.075553 0.108499 0.024398
0.099969 0.108799 0.024235
0.126851 0.109114 0.023159
0.156515 0.109281 0.021854
0.188584 0.109344 0.020998
0.222741 0.109399 0.020572
0.258890 0.109492 0.020407
0.297039 0.109633 0.020380
0.337218 0.109820 0.020420
0.379462 0.110048 0.020491
0.423792 0.110311 0.020576
0.469810 0.110601 0.020666
0.514540 0.110896 0.020752
0.557407 0.111187 0.020832
0.598422 0.111471 0.020907
0.637590 0.111747 0.020978
0.674914 0.112013 0.021045
0.710397 0.112268 0.021110
0.744041 0.112512 0.021171
0.775847 0.112744 0.021230
0.805815 0.112965 0.021287
0.833947 0.113172 0.021341
0.860243 0.113367 0.021392
0.884703 0.113549 0.021441
0.907328 0.113718 0.021486
0.928118 0.113873 0.021529
0.947074 0.114015 0.021568
0.964195 0.114144 0.021605
0.979503 0.114259 0.021638
0.004777 0.135277 0.024335
0.016258 0.135364 0.024415
0.034405 0.135541 0.024534
0.054581 0.135768 0.024599
0.076878 0.136019 0.024668
0.101292 0.136302 0.024700
0.127854 0.136632 0.024432
0.156882 0.136974 0.023273
0.188650 0.137189 0.021821
0.222910 0.137285 0.020705
0.259362 0.137341 0.020027
0.297855 0.137414 0.019681
0.338351 0.137528 0.019545
0.380858 0.137687 0.019534
0.425402 0.137891 0.019592
0.471587 0.138134 0.019688
0.516440 0.138392 0.019796
0.559400 0.138655 0.019905
0.600485 0.138918 0.020011
0.639706 0.139176 0.020113
0.677073 0.139429 0.020209
0.712590 0.139673 0.020301
0.746260 0.139908 0.020388
0.778088 0.140133 0.020470
0.808075 0.140348 0.020548
0.836221 0.140550 0.020622
0.862530 0.140741 0.020691
0.887001 0.140919 0.020755
0.909635 0.141085 0.020816
0.930432 0.141238 0.020872
0.949394 0.141378 0.020923
0.966521 0.141505 0.020970
0.981833 0.141619 0.021012
0.005809 0.165012 0.024616
0.017664 0.165102 0.024711
0.035807 0.165281 0.024827
0.055988 0.165507 0.024896
0.078292 0.165758 0.024972
0.102716 0.166034 0.025044
0.129256 0.166345 0.025044
0.157965 0.166705 0.024676
0.189138 0.167076 0.023444
0.223015 0.167333 0.021878
0.259433 0.167467 0.020547
0.298130 0.167540 0.019628
0.338930 0.167606 0.019080
0.381756 0.167701 0.018803
0.426593 0.167836 0.018704
0.473027 0.168015 0.018718
0.518076 0.168221 0.018795
0.561187 0.168442 0.018900
0.602390 0.168671 0.019017
0.641705 0.168902 0.019136
0.679147 0.169132 0.019255
0.714724 0.169358 0.019370
0.748444 0.169578 0.019480
0.780313 0.169791 0.019585
0.810333 0.169994 0.019684
0.838508 0.170188 0.019778
0.864840 0.170371 0.019866
0.889331 0.170543 0.019948
0.911982 0.170704 0.020025
0.932794 0.170853 0.020095
0.951768 0.170989 0.020160
0.968905 0.171112 0.020218
0.984226 0.171224 0.020271
0.006919 0.196961 0.024948
0.019168 0.197055 0.025058
0.037306 0.197237 0.025171
0.057490 0.197463 0.025244
0.079798 0.197713 0.025326
0.104228 0.197988 0.025413
0.130776 0.198291 0.025483
0.159444 0.198631 0.025443
0.190298 0.199021 0.024984
0.223615 0.199420 0.023683
0.259607 0.199717 0.022022
0.298167 0.199891 0.020512
0.339074 0.199988 0.019373
0.382146 0.200060 0.018618
0.427280 0.200145 0.018177
0.474011 0.200261 0.017965
0.519315 0.200407 0.017909
0.562637 0.200576 0.017941
0.604011 0.200760 0.018020
0.643466 0.200953 0.018126
0.681022 0.201152 0.018243
0.716694 0.201351 0.018365
0.750492 0.201549 0.018487
0.782426 0.201743 0.018607
0.812501 0.201930 0.018723
0.840723 0.202110 0.018833
0.867094 0.202282 0.018937
0.891618 0.202444 0.019035
0.914298 0.202596 0.019127
0.935134 0.202737 0.019211
0.954128 0.202867 0.019288
0.971283 0.202985 0.019358
0.986619 0.203092 0.019421
0.008105 0.231126 0.025337
0.020769 0.231223 0.025461
0.038899 0.231409 0.025570
0.059086 0.231635 0.025650
0.081396 0.231885 0.025738
0.105830 0.232160 0.025834
0.132384 0.232460 0.025931
0.161056 0.232791 0.025995
0.191852 0.233162 0.025910
0.224852 0.233580 0.025367
0.260312 0.234008 0.024002
0.298421 0.234343 0.022260
0.339116 0.234559 0.020597
0.382208 0.234686 0.019259
0.427523 0.234772 0.018302
0.474514 0.234854 0.017691
0.520085 0.234951 0.017361
0.563651 0.235068 0.017213
0.605238 0.235203 0.017176
0.644875 0.235353 0.017207
0.682586 0.235512 0.017280
0.718388 0.235678 0.017376
0.752297 0.235846 0.017486
0.784325 0.236014 0.017602
0.814480 0.236180 0.017719
0.842769 0.236341 0.017835
0.869199 0.236496 0.017947
0.893773 0.236644 0.018054
0.916496 0.236784 0.018155
0.937369 0.236914 0.018250
0.956395 0.237035 0.018337
0.973576 0.237146 0.018416
0.988935 0.237246 0.018488
0.009368 0.267507 0.025790
0.022467 0.267607 0.025930
0.040587 0.267798 0.026034
0.060775 0.268025 0.026120
0.083087 0.268275 0.026215
0.107523 0.268550 0.026320
0.134081 0.268850 0.026431
0.162758 0.269176 0.026536
0.193553 0.269536 0.026590
0.226479 0.269938 0.026459
0.261623 0.270386 0.025839
0.299224 0.270843 0.024414
0.339455 0.271214 0.022599
0.382279 0.271471 0.020805
0.427540 0.271632 0.019288
0.474646 0.271737 0.018147
0.520416 0.271820 0.017400
0.564206 0.271905 0.016944
0.606014 0.271999 0.016685
0.645855 0.272107 0.016559
0.683748 0.272226 0.016519
0.719710 0.272355 0.016537
0.753759 0.272489 0.016593
0.785909 0.272627 0.016672
0.816169 0.272766 0.016765
0.844550 0.272903 0.016865
0.871059 0.273038 0.016969
0.895702 0.273167 0.017072
0.918484 0.273291 0.017172
0.939409 0.273408 0.017267
0.958479 0.273516 0.017357
0.975698 0.273616 0.017440
0.991090 0.273707 0.017515
0.010709 0.306106 0.026314
0.024258 0.306210 0.026469
0.042369 0.306406 0.026570
0.062558 0.306633 0.026662
0.084871 0.306884 0.026764
0.109307 0.307159 0.026878
0.135867 0.307459 0.027001
0.164548 0.307785 0.027127
0.195348 0.308140 0.027239
0.228265 0.308529 0.027280
0.263321 0.308961 0.027104
0.300608 0.309440 0.026412
0.340350 0.309926 0.024932
0.382705 0.310334 0.023051
0.427655 0.310630 0.021143
0.474645 0.310826 0.019479
0.520459 0.310950 0.018235
0.564383 0.311040 0.017361
0.606366 0.311119 0.016771
0.646393 0.311200 0.016388
0.684469 0.311287 0.016153
0.720604 0.311382 0.016023
0.754810 0.311484 0.015966
0.787100 0.311591 0.015960
0.817487 0.311701 0.015989
0.845979 0.311812 0.016042
0.872586 0.311923 0.016110
0.897316 0.312031 0.016187
0.920173 0.312136 0.016268
0.941164 0.312236 0.016349
0.960292 0.312330 0.016429
0.977562 0.312417 0.016505
0.992996 0.312496 0.016576
0.012127 0.346923 0.026917
0.026143 0.347032 0.027089
0.044243 0.347233 0.027185
0.064432 0.347460 0.027284
0.086745 0.347712 0.027394
0.111182 0.347989 0.027517
0.137742 0.348289 0.027650
0.166425 0.348615 0.027793
0.197228 0.348968 0.027935
0.230150 0.349351 0.028053
0.265190 0.349771 0.028078
0.302376 0.350235 0.027858
0.341806 0.350744 0.027102
0.383687 0.351261 0.025570
0.428167 0.351704 0.023628
0.474816 0.352038 0.021637
0.520468 0.352258 0.019944
0.564369 0.352404 0.018618
0.606420 0.352507 0.017624
0.646567 0.352590 0.016900
0.684787 0.352666 0.016384
0.721073 0.352741 0.016028
0.755430 0.352819 0.015791
0.787864 0.352900 0.015641
0.818384 0.352984 0.015556
0.846998 0.353070 0.015518
0.873716 0.353158 0.015514
0.898545 0.353244 0.015533
0.921491 0.353329 0.015568
0.942560 0.353411 0.015614
0.961757 0.353489 0.015665
0.979087 0.353562 0.015719
0.994303 0.353628 0.015770
0.013622 0.389962 0.027607
0.028116 0.390075 0.027793
0.046208 0.390280 0.027887
0.066397 0.390509 0.027994
0.088710 0.390762 0.028113
0.113147 0.391039 0.028245
0.139707 0.391341 0.028389
0.168390 0.391668 0.028545
0.199195 0.392021 0.028708
0.232120 0.392402 0.028867
0.267161 0.392814 0.028989
0.304325 0.393265 0.028999
0.343642 0.393761 0.028737
0.385212 0.394301 0.027921
0.429232 0.394848 0.026341
0.475415 0.395323 0.024363
0.520721 0.395675 0.022424
0.564420 0.395921 0.020732
0.606389 0.396092 0.019340
0.646540 0.396215 0.018237
0.684821 0.396310 0.017385
0.721203 0.396389 0.016738
0.755673 0.396461 0.016254
0.788227 0.396530 0.015899
0.818867 0.396598 0.015644
0.847598 0.396666 0.015466
0.874426 0.396734 0.015345
0.899357 0.396802 0.015269
0.922396 0.396869 0.015226
0.943549 0.396934 0.015207
0.962822 0.396997 0.015205
0.980218 0.397055 0.015215
0.995081 0.397108 0.015229
0.015194 0.435221 0.028393
0.030171 0.435344 0.028585
0.048262 0.435550 0.028687
0.068451 0.435780 0.028802
0.090763 0.436034 0.028930
0.115199 0.436313 0.029072
0.141759 0.436616 0.029227
0.170442 0.436944 0.029396
0.201248 0.437298 0.029576
0.234174 0.437678 0.029761
0.269218 0.438088 0.029936
0.306381 0.438530 0.030063
0.345668 0.439013 0.030057
0.387115 0.439541 0.029754
0.430824 0.440113 0.028886
0.476563 0.440686 0.027278
0.521435 0.441165 0.025400
0.564789 0.441533 0.023547
0.606523 0.441807 0.021871
0.646540 0.442007 0.020434
0.684766 0.442155 0.019243
0.721151 0.442269 0.018277
0.755664 0.442360 0.017507
0.788286 0.442437 0.016899
0.819009 0.442505 0.016424
0.847830 0.442568 0.016058
0.874749 0.442627 0.015777
0.899769 0.442685 0.015565
0.922894 0.442740 0.015407
0.944128 0.442793 0.015291
0.963474 0.442843 0.015208
0.980937 0.442890 0.015149
0.995434 0.442932 0.015110
0.016819 0.481984 0.029270
0.032281 0.482116 0.029468
0.050372 0.482323 0.029577
0.070559 0.482554 0.029701
0.092871 0.482809 0.029838
0.117306 0.483090 0.029991
0.143865 0.483394 0.030157
0.172548 0.483724 0.030339
0.203353 0.484079 0.030534
0.236279 0.484461 0.030740
0.271326 0.484869 0.030949
0.308490 0.485308 0.031140
0.347772 0.485782 0.031269
0.389182 0.486297 0.031245
0.432761 0.486858 0.030900
0.478196 0.487456 0.029985
0.522671 0.488021 0.028465
0.565632 0.488499 0.026721
0.607031 0.488883 0.024967
0.646795 0.489183 0.023333
0.684847 0.489412 0.021882
0.721128 0.489588 0.020633
0.755591 0.489726 0.019582
0.788205 0.489835 0.018709
0.818948 0.489924 0.017992
0.847809 0.489999 0.017409
0.874781 0.490065 0.016936
0.899860 0.490124 0.016557
0.923047 0.490177 0.016253
0.944343 0.490226 0.016011
0.963750 0.490271 0.015820
0.981269 0.490312 0.015670
0.995391 0.490348 0.015560
0.018391 0.527213 0.030181
0.034310 0.527353 0.030385
0.052400 0.527561 0.030502
0.072587 0.527793 0.030634
0.094897 0.528050 0.030780
0.119332 0.528331 0.030942
0.145889 0.528638 0.031120
0.174571 0.528969 0.031314
0.205375 0.529326 0.031523
0.238301 0.529709 0.031746
0.273347 0.530118 0.031978
0.310513 0.530556 0.032208
0.349796 0.531025 0.032411
0.391198 0.531532 0.032535
0.434734 0.532081 0.032476
0.480037 0.532671 0.032066
0.524249 0.533257 0.031148
0.566880 0.533804 0.029728
0.607945 0.534277 0.028113
0.647410 0.534669 0.026470
0.685218 0.534986 0.024905
0.721314 0.535239 0.023480
0.755646 0.535439 0.022219
0.788174 0.535598 0.021126
0.818869 0.535726 0.020193
0.847710 0.535831 0.019403
0.874682 0.535918 0.018741
0.899778 0.535991 0.018189
0.922990 0.536055 0.017732
0.944317 0.536110 0.017354
0.963758 0.536158 0.017043
0.981313 0.536201 0.016790
0.995069 0.536237 0.016605
0.020115 0.570568 0.031116
0.036243 0.570714 0.031322
0.054332 0.570923 0.031446
0.074518 0.571156 0.031586
0.096828 0.571414 0.031741
0.121261 0.571697 0.031913
0.147818 0.572005 0.032101
0.176497 0.572338 0.032307
0.207300 0.572697 0.032529
0.240225 0.573081 0.032767
0.275272 0.573491 0.033017
0.312438 0.573929 0.033275
0.351722 0.574397 0.033524
0.393123 0.574899 0.033732
0.436645 0.575439 0.033835
0.481898 0.576019 0.033722
0.525983 0.576599 0.033264
0.568389 0.577165 0.032361
0.609180 0.577693 0.031036
0.648363 0.578158 0.029542
0.685912 0.578551 0.028012
0.721783 0.578879 0.026534
0.755934 0.579147 0.025163
0.788322 0.579365 0.023924
0.818914 0.579543 0.022828
0.847683 0.579688 0.021871
0.874608 0.579808 0.021044
0.899676 0.579907 0.020336
0.922876 0.579991 0.019734
0.944202 0.580061 0.019224
0.963649 0.580121 0.018795
0.981216 0.580173 0.018437
0.994615 0.580214 0.018179
0.021963 0.612048 0.032067
0.038083 0.612197 0.032271
0.056171 0.612407 0.032402
0.076356 0.612642 0.032550
0.098664 0.612902 0.032714
0.123096 0.613186 0.032895
0.149652 0.613495 0.033093
0.178330 0.613830 0.033310
0.209131 0.614190 0.033544
0.242055 0.614576 0.033795
0.277100 0.614988 0.034062
0.314266 0.615427 0.034341
0.353551 0.615895 0.034622
0.394952 0.616394 0.034884
0.438471 0.616929 0.035086
0.483704 0.617499 0.035153
0.527734 0.618071 0.034983
0.570022 0.618634 0.034492
0.610619 0.619178 0.033612
0.649573 0.619688 0.032376
0.686885 0.620140 0.030996
0.722532 0.620530 0.029578
0.756483 0.620861 0.028196
0.788702 0.621139 0.026896
0.819156 0.621370 0.025705
0.847815 0.621561 0.024633
0.874657 0.621720 0.023683
0.899662 0.621853 0.022850
0.922818 0.621964 0.022125
0.944113 0.622057 0.021500
0.963540 0.622135 0.020965
0.981095 0.622201 0.020510
0.994147 0.622251 0.020187
0.023718 0.651649 0.033023
0.039829 0.651803 0.033226
0.057917 0.652014 0.033364
0.078101 0.652250 0.033518
0.100408 0.652510 0.033690
0.124839 0.652796 0.033880
0.151393 0.653107 0.034089
0.180070 0.653443 0.034315
0.210870 0.653805 0.034561
0.243792 0.654193 0.034825
0.278836 0.654606 0.035107
0.316001 0.655046 0.035403
0.355285 0.655515 0.035708
0.396687 0.656013 0.036008
0.440206 0.656545 0.036275
0.485432 0.657110 0.036457
0.529437 0.657674 0.036472
0.571667 0.658229 0.036253
0.612155 0.658772 0.035741
0.650942 0.659295 0.034889
0.688060 0.659785 0.033736
0.723508 0.660223 0.032463
0.757268 0.660606 0.031156
0.789312 0.660936 0.029873
0.819612 0.661217 0.028655
0.848142 0.661455 0.027528
0.874876 0.661656 0.026502
0.899795 0.661825 0.025582
0.922882 0.661967 0.024767
0.944123 0.662087 0.024051
0.963509 0.662187 0.023429
0.981033 0.662272 0.022892
0.993751 0.662335 0.022517
0.025381 0.689372 0.033977
0.041485 0.689529 0.034180
0.059571 0.689741 0.034324
0.079754 0.689978 0.034485
0.102060 0.690239 0.034665
0.126490 0.690527 0.034863
0.153043 0.690839 0.035081
0.181718 0.691177 0.035318
0.212516 0.691540 0.035574
0.245437 0.691929 0.035850
0.280480 0.692344 0.036145
0.317644 0.692786 0.036457
0.356927 0.693256 0.036782
0.398329 0.693755 0.037111
0.441848 0.694285 0.037424
0.487071 0.694846 0.037682
0.531066 0.695404 0.037819
0.573267 0.695952 0.037784
0.613697 0.696490 0.037525
0.652384 0.697013 0.036999
0.689359 0.697514 0.036180
0.724644 0.697983 0.035107
0.758235 0.698405 0.033934
0.790116 0.698777 0.032732
0.820265 0.699102 0.031549
0.848660 0.699383 0.030420
0.875276 0.699623 0.029367
0.900095 0.699828 0.028403
0.923097 0.700003 0.027531
0.944269 0.700151 0.026753
0.963599 0.700276 0.026067
0.981077 0.700382 0.025468
0.993475 0.700458 0.025056
0.026952 0.725214 0.034923
0.043050 0.725374 0.035126
0.061136 0.725587 0.035276
0.081318 0.725825 0.035444
0.103623 0.726088 0.035631
0.128051 0.726376 0.035837
0.154602 0.726690 0.036063
0.183276 0.727029 0.036310
0.214073 0.727394 0.036576
0.246992 0.727785 0.036864
0.282034 0.728202 0.037171
0.319196 0.728645 0.037497
0.358479 0.729116 0.037840
0.399880 0.729616 0.038191
0.443399 0.730146 0.038538
0.488622 0.730704 0.038851
0.532611 0.731258 0.039073
0.574799 0.731801 0.039164
0.615197 0.732333 0.039082
0.653827 0.732852 0.038790
0.690711 0.733353 0.038258
0.725872 0.733832 0.037474
0.759325 0.734280 0.036476
0.791065 0.734684 0.035398
0.821076 0.735044 0.034297
0.849341 0.735360 0.033213
0.875840 0.735636 0.032175
0.900554 0.735875 0.031204
0.923466 0.736080 0.030310
0.944560 0.736256 0.029499
0.963824 0.736406 0.028774
0.981248 0.736533 0.028133
0.993343 0.736623 0.027699
0.028434 0.759175 0.035855
0.044526 0.759338 0.036058
0.062611 0.759552 0.036213
0.082792 0.759791 0.036388
0.105096 0.760055 0.036582
0.129523 0.760344 0.036796
0.156073 0.760659 0.037030
0.184746 0.761000 0.037285
0.215541 0.761367 0.037562
0.248459 0.761759 0.037860
0.283498 0.762177 0.038178
0.320659 0.762622 0.038518
0.359941 0.763095 0.038875
0.401342 0.763595 0.039246
0.444860 0.764125 0.039620
0.490082 0.764683 0.039974
0.534070 0.765234 0.040257
0.576250 0.765773 0.040437
0.616632 0.766300 0.040481
0.655230 0.766814 0.040357
0.692059 0.767313 0.040039
0.727138 0.767793 0.039508
0.760484 0.768249 0.038760
0.792107 0.768675 0.037835
0.821999 0.769061 0.036846
0.850147 0.769405 0.035840
0.876536 0.769710 0.034852
0.901150 0.769978 0.033907
0.923971 0.770211 0.033020
0.944986 0.770412 0.032204
0.964181 0.770586 0.031463
0.981545 0.770734 0.030800
0.993356 0.770837 0.030358
0.029828 0.791254 0.036767
0.045915 0.791419 0.036970
0.063998 0.791634 0.037131
0.084178 0.791874 0.037311
0.106481 0.792139 0.037512
0.130907 0.792430 0.037733
0.157456 0.792746 0.037975
0.186127 0.793088 0.038239
0.216921 0.793456 0.038525
0.249838 0.793850 0.038832
0.284876 0.794270 0.039162
0.322035 0.794716 0.039513
0.361315 0.795190 0.039884
0.402715 0.795692 0.040272
0.446233 0.796222 0.040668
0.491455 0.796780 0.041053
0.535442 0.797329 0.041383
0.577618 0.797865 0.041628
0.617991 0.798388 0.041764
0.656569 0.798898 0.041763
0.693365 0.799393 0.041602
0.728393 0.799871 0.041264
0.761666 0.800329 0.040738
0.793196 0.800762 0.040029
0.822990 0.801166 0.039173
0.851038 0.801532 0.038268
0.877330 0.801860 0.037354
0.901851 0.802151 0.036459
0.924587 0.802408 0.035604
0.945524 0.802632 0.034803
0.964651 0.802826 0.034067
0.981955 0.802994 0.033402
0.993504 0.803108 0.032963
0.031134 0.821450 0.037653
0.047216 0.821617 0.037857
0.065299 0.821833 0.038023
0.085478 0.822073 0.038209
0.107780 0.822340 0.038415
0.132205 0.822631 0.038643
0.158752 0.822949 0.038893
0.187422 0.823292 0.039165
0.218215 0.823661 0.039459
0.251130 0.824057 0.039776
0.286166 0.824478 0.040116
0.323324 0.824926 0.040478
0.362603 0.825401 0.040862
0.404002 0.825904 0.041264
0.447518 0.826436 0.041678
0.492740 0.826993 0.042090
0.536726 0.827542 0.042455
0.578901 0.828076 0.042750
0.619269 0.828596 0.042954
0.657836 0.829102 0.043045
0.694611 0.829594 0.043003
0.729606 0.830069 0.042810
0.762831 0.830525 0.042457
0.794297 0.830960 0.041941
0.824011 0.831370 0.041271
0.851977 0.831751 0.040481
0.878184 0.832097 0.039656
0.902624 0.832407 0.038828
0.925283 0.832683 0.038022
0.946149 0.832926 0.037256
0.965211 0.833138 0.036541
0.982458 0.833323 0.035888
0.993765 0.833446 0.035462
0.032353 0.849761 0.038509
0.048431 0.849931 0.038714
0.066514 0.850147 0.038884
0.086692 0.850389 0.039075
0.108993 0.850656 0.039288
0.133416 0.850948 0.039522
0.159963 0.851267 0.039779
0.188632 0.851612 0.040058
0.219423 0.851982 0.040360
0.252336 0.852379 0.040686
0.287371 0.852802 0.041035
0.324528 0.853251 0.041408
0.363805 0.853728 0.041803
0.405203 0.854232 0.042218
0.448719 0.854765 0.042649
0.493940 0.855323 0.043082
0.537926 0.855871 0.043475
0.580099 0.856404 0.043809
0.620464 0.856922 0.044065
0.659024 0.857425 0.044226
0.695787 0.857913 0.044274
0.730760 0.858385 0.044193
0.763953 0.858839 0.043973
0.795375 0.859274 0.043610
0.825032 0.859685 0.043108
0.852930 0.860072 0.042478
0.879068 0.860430 0.041751
0.903438 0.860754 0.041001
0.926029 0.861045 0.040256
0.946832 0.861303 0.039536
0.965835 0.861531 0.038855
0.983029 0.861730 0.038224
0.994117 0.861862 0.037819
0.033487 0.876188 0.039329
0.049562 0.876359 0.039535
0.067643 0.876576 0.039710
0.087820 0.876819 0.039906
0.110121 0.877087 0.040124
0.134543 0.877380 0.040364
0.161088 0.877700 0.040627
0.189756 0.878046 0.040913
0.220546 0.878417 0.041223
0.253458 0.878815 0.041557
0.288492 0.879239 0.041915
0.325647 0.879690 0.042297
0.364923 0.880168 0.042702
0.406319 0.880674 0.043130
0.449834 0.881208 0.043575
0.495055 0.881766 0.044026
0.539040 0.882315 0.044443
0.581213 0.882847 0.044807
0.621576 0.883363 0.045104
