assets/luts/warm_marke.cube
TITLE "Warm Marke"
# Waermer und satter, Schatten ins Blaugruene. Der uebliche Werbelook fuer Talking Heads. Bei sehr heller Haut kann es schnell zu orange werden — dann Temperatur runter.
# erzeugt von tools/make_lut.py aus assets/luts/looks.json (warm_marke)
LUT_3D_SIZE 5
DOMAIN_MIN 0.0 0.0 0.0
DOMAIN_MAX 1.0 1.0 1.0
0.000000 0.015907 0.049089
0.231044 0.012198 0.041989
0.588017 0.007506 0.032299
0.880346 0.003807 0.024670
1.000000 0.001738 0.020139
0.000000 0.236412 0.025597
0.226076 0.232530 0.018739
0.575705 0.229390 0.019897
0.865350 0.226849 0.012452
1.000000 0.225275 0.007932
0.000000 0.575550 0.000000
0.217712 0.572062 0.000000
0.580353 0.566414 0.000000
0.868645 0.563320 0.000000
1.000000 0.562739 0.000000
0.000000 0.860159 0.000000
0.212143 0.856882 0.000000
0.575453 0.851981 0.000000
0.872161 0.847745 0.000000
1.000000 0.846138 0.000000
0.000000 1.000000 0.000000
0.210318 1.000000 0.000000
0.573791 1.000000 0.000000
0.871514 1.000000 0.000000
1.000000 1.000000 0.000000
0.000000 0.014591 0.274649
0.231839 0.010442 0.267902
0.593573 0.004547 0.256572
0.888385 0.000273 0.247684
1.000000 0.000000 0.242590
0.000000 0.235163 0.251267
0.225325 0.231324 0.244732
0.586997 0.225851 0.233989
0.880275 0.222271 0.226508
1.000000 0.220426 0.222230
0.000000 0.574405 0.216856
0.213542 0.572398 0.206313
0.580464 0.565720 0.199071
0.867699 0.562940 0.207216
1.000000 0.562425 0.205947
0.000000 0.859205 0.189575
0.207267 0.857658 0.178800
0.573383 0.852084 0.168876
0.872482 0.847260 0.167140
1.000000 0.845510 0.172049
0.000000 1.000000 0.173990
0.205261 1.000000 0.163467
0.571126 1.000000 0.153994
0.870908 1.000000 0.148260
1.000000 1.000000 0.148739
0.000000 0.012577 0.622363
0.230666 0.008510 0.615721
0.593075 0.002442 0.604807
0.889728 0.000000 0.595866
1.000000 0.000000 0.590598
0.000000 0.233240 0.599146
0.224205 0.229040 0.597383
0.591184 0.222149 0.585753
0.889052 0.217569 0.575236
1.000000 0.215301 0.569677
0.000000 0.572650 0.565147
0.212291 0.570324 0.559565
0.579884 0.563917 0.548366
0.875755 0.560173 0.541204
1.000000 0.558494 0.537165
0.000000 0.857592 0.538077
0.205806 0.856034 0.530129
0.569636 0.851574 0.516597
0.872407 0.845981 0.512245
1.000000 0.844493 0.518010
0.000000 1.000000 0.522647
0.203623 1.000000 0.514092
0.566545 1.000000 0.500327
0.869372 1.000000 0.492388
1.000000 1.000000 0.491989
0.000000 0.010878 0.918018
0.229818 0.006844 0.911415
0.592167 0.000846 0.900581
0.889038 0.000000 0.891852
1.000000 0.000000 0.886650
0.000000 0.231622 0.894934
0.223423 0.227353 0.894366
0.588950 0.220901 0.883253
0.888379 0.215766 0.874125
1.000000 0.213416 0.868254
0.000000 0.571139 0.861215
0.212900 0.568247 0.858268
0.578861 0.561928 0.851598
0.882219 0.556277 0.841768
1.000000 0.554028 0.836010
0.000000 0.856231 0.834428
0.205044 0.854475 0.829383
0.568164 0.849896 0.819711
0.871902 0.844515 0.810896
1.000000 0.843538 0.808581
0.000000 1.000000 0.819128
0.202971 1.000000 0.813029
0.564947 1.000000 0.802127
0.867543 1.000000 0.792163
1.000000 1.000000 0.789831
0.000000 0.009983 1.000000
0.229478 0.005948 1.000000
0.591793 0.000000 1.000000
0.888636 0.000000 1.000000
1.000000 0.000000 1.000000
0.000000 0.230722 1.000000
0.223071 0.226424 1.000000
0.588097 0.220111 1.000000
0.887171 0.215065 1.000000
1.000000 0.212419 1.000000
0.000000 0.570241 1.000000
0.213008 0.567144 1.000000
0.578276 0.560868 1.000000
0.880774 0.555422 1.000000
1.000000 0.552843 1.000000
0.000000 0.855332 1.000000
0.205480 0.853243 1.000000
0.568437 0.848497 1.000000
0.871591 0.843189 1.000000
1.000000 0.840760 1.000000
0.000000 1.000000 1.000000
0.202551 1.000000 1.000000
0.564380 1.000000 0.999142
0.866619 1.000000 0.990738
1.000000 1.000000 0.986874
