assets/luts/warm_marke.cube
TITLE "Warm Marke"
# Waermer und satter, Schatten ins Blaugruene. Der uebliche Werbelook fuer Talking Heads. Bei sehr heller Haut kann es schnell zu orange werden — dann Temperatur runter.
# erzeugt von tools/make_lut.py aus assets/luts/looks.json (warm_marke)
LUT_3D_SIZE 33
DOMAIN_MIN 0.0 0.0 0.0
DOMAIN_MAX 1.0 1.0 1.0
0.000000 0.015907 0.049089
0.016666 0.015556 0.048866
0.041058 0.015070 0.048053
0.067331 0.014598 0.047095
0.095731 0.014132 0.046112
0.126273 0.013667 0.045115
0.158987 0.013194 0.044101
0.193903 0.012706 0.043062
0.231044 0.012198 0.041989
0.270421 0.011666 0.040877
0.312042 0.011110 0.039721
0.355913 0.010528 0.038518
0.402037 0.009921 0.037265
0.450281 0.009289 0.035965
0.497898 0.008670 0.034691
0.543810 0.008075 0.033470
0.588017 0.007506 0.032299
0.630521 0.006961 0.031179
0.671321 0.006441 0.030107
0.710417 0.005944 0.029083
0.747810 0.005470 0.028107
0.783500 0.005020 0.027178
0.817485 0.004593 0.026296
0.849767 0.004189 0.025460
0.880346 0.003807 0.024670
0.909220 0.003448 0.023925
0.936391 0.003110 0.023226
0.961857 0.002795 0.022572
0.985619 0.002502 0.021962
1.000000 0.002230 0.021397
1.000000 0.001980 0.020877
1.000000 0.001749 0.020396
1.000000 0.001738 0.020139
0.000000 0.036652 0.046840
0.015832 0.036383 0.046411
0.040300 0.035865 0.045720
0.066791 0.035337 0.044706
0.095070 0.034905 0.043776
0.125466 0.034478 0.042876
0.158072 0.034032 0.041955
0.192913 0.033563 0.040994
0.230002 0.033068 0.039985
0.269343 0.032546 0.038925
0.310939 0.031998 0.037812
0.354791 0.031424 0.036644
0.400901 0.030823 0.035422
0.449135 0.030198 0.034150
0.496745 0.029584 0.032898
0.542653 0.028994 0.031695
0.586857 0.028430 0.030541
0.629359 0.027889 0.029434
0.670158 0.027373 0.028374
0.709254 0.026880 0.027362
0.746646 0.026410 0.026395
0.782325 0.025966 0.025478
0.816301 0.025545 0.024606
0.848574 0.025146 0.023780
0.879144 0.024770 0.022999
0.908010 0.024416 0.022263
0.935173 0.024083 0.021571
0.960633 0.023772 0.020924
0.984389 0.023483 0.020321
1.000000 0.023215 0.019762
1.000000 0.022969 0.019247
1.000000 0.022741 0.018771
1.000000 0.022740 0.018526
0.000000 0.058990 0.044429
0.015039 0.058783 0.043737
0.039199 0.058387 0.042780
0.065599 0.057812 0.042530
0.093189 0.057536 0.042127
0.123485 0.057142 0.041226
0.156100 0.056699 0.040295
0.190967 0.056227 0.039331
0.228080 0.055729 0.038324
0.267440 0.055207 0.037268
0.309050 0.054660 0.036161
0.352912 0.054087 0.035001
0.399029 0.053490 0.033788
0.447266 0.052869 0.032524
0.494877 0.052260 0.031281
0.540784 0.051676 0.030088
0.584986 0.051117 0.028942
0.627485 0.050582 0.027843
0.668281 0.050071 0.026792
0.707372 0.049584 0.025787
0.744761 0.049119 0.024828
0.780446 0.048678 0.023915
0.814428 0.048259 0.023047
0.846706 0.047863 0.022225
0.877281 0.047489 0.021447
0.906152 0.047136 0.020714
0.933319 0.046806 0.020026
0.958782 0.046497 0.019382
0.982541 0.046210 0.018782
1.000000 0.045944 0.018225
1.000000 0.045699 0.017713
1.000000 0.045479 0.017246
1.000000 0.045481 0.017005
0.000000 0.083267 0.041819
0.014293 0.083084 0.040963
0.038262 0.082763 0.039858
0.064826 0.082211 0.038939
0.093368 0.081592 0.039160
0.122874 0.081298 0.039641
0.154804 0.081030 0.039044
0.189310 0.080668 0.038098
0.226238 0.080236 0.037040
0.265502 0.079754 0.035928
0.307061 0.079232 0.034771
0.350897 0.078678 0.033570
0.397000 0.078094 0.032324
0.445233 0.077484 0.031035
0.492844 0.076884 0.029773
0.538752 0.076308 0.028566
0.582958 0.075755 0.027409
0.625461 0.075226 0.026303
0.666261 0.074720 0.025246
0.705357 0.074237 0.024237
0.742750 0.073777 0.023275
0.778439 0.073340 0.022359
0.812425 0.072925 0.021490
0.844707 0.072532 0.020666
0.875285 0.072161 0.019888
0.904160 0.071812 0.019155
0.931330 0.071485 0.018467
0.956796 0.071179 0.017823
0.980559 0.070894 0.017223
1.000000 0.070630 0.016667
1.000000 0.070387 0.016154
1.000000 0.070178 0.015697
1.000000 0.070182 0.015459
0.000000 0.109658 0.038996
0.013508 0.109489 0.038030
0.037374 0.109209 0.036849
0.063849 0.108683 0.035978
0.092649 0.108099 0.035145
0.123323 0.107459 0.035659
0.155111 0.107090 0.036521
0.188965 0.106844 0.036401
0.225328 0.106553 0.035672
0.264197 0.106184 0.034659
0.305492 0.105747 0.033509
0.349153 0.105254 0.032280
0.395139 0.104717 0.030994
0.443291 0.104142 0.029664
0.490850 0.103568 0.028368
0.536725 0.103012 0.027131
0.580908 0.102476 0.025950
0.623395 0.101960 0.024824
0.664183 0.101465 0.023751
0.703272 0.100992 0.022728
0.740659 0.100541 0.021755
0.776345 0.100111 0.020830
0.810329 0.099703 0.019953
0.842609 0.099316 0.019123
0.873187 0.098951 0.018340
0.902061 0.098607 0.017602
0.929231 0.098284 0.016910
0.954698 0.097982 0.016262
0.978461 0.097701 0.015660
1.000000 0.097440 0.015102
1.000000 0.097201 0.014587
1.000000 0.097004 0.014138
1.000000 0.097009 0.013904
0.000000 0.138166 0.035961
0.012677 0.138005 0.034912
0.036515 0.137739 0.033723
0.062921 0.137235 0.032876
0.091641 0.136686 0.031975
0.122669 0.136067 0.031284
0.155506 0.135408 0.031984
0.189607 0.134977 0.033033
0.225586 0.134705 0.033302
0.263923 0.134442 0.032873
0.304744 0.134123 0.032017
0.348033 0.133736 0.030918
0.393740 0.133284 0.029676
0.441686 0.132779 0.028347
0.489100 0.132258 0.027032
0.534872 0.131743 0.025770
0.578980 0.131238 0.024564
0.621412 0.130748 0.023414
0.662159 0.130275 0.022319
0.701216 0.129820 0.021277
0.738579 0.129384 0.020287
0.774245 0.128967 0.019348
0.808213 0.128571 0.018458
0.840481 0.128194 0.017617
0.871049 0.127838 0.016824
0.899915 0.127502 0.016078
0.927079 0.127186 0.015378
0.952540 0.126891 0.014725
0.976299 0.126616 0.014117
0.998353 0.126361 0.013554
1.000000 0.126126 0.013035
1.000000 0.125943 0.012594
1.000000 0.125950 0.012364
0.000000 0.168793 0.032719
0.011799 0.168638 0.031600
0.035642 0.168372 0.030431
0.062000 0.167885 0.029604
0.090667 0.167356 0.028710
0.121649 0.166778 0.027808
0.154903 0.166125 0.027284
0.189932 0.165446 0.028111
0.226338 0.164964 0.029272
0.264530 0.164651 0.029834
0.304942 0.164388 0.029705
0.347772 0.164099 0.029062
0.393064 0.163753 0.028082
0.440666 0.163344 0.026892
0.487818 0.162904 0.025638
0.533394 0.162453 0.024399
0.577355 0.162000 0.023195
0.619673 0.161552 0.022037
0.660331 0.161114 0.020929
0.699318 0.160688 0.019872
0.736625 0.160277 0.018867
0.772246 0.159882 0.017913
0.806177 0.159504 0.017010
0.838415 0.159143 0.016156
0.868957 0.158801 0.015351
0.897802 0.158478 0.014595
0.924948 0.158173 0.013886
0.950395 0.157888 0.013224
0.974140 0.157621 0.012608
0.996185 0.157374 0.012038
1.000000 0.157146 0.011514
1.000000 0.156979 0.011082
1.000000 0.156989 0.010855
0.000000 0.201542 0.029273
0.010877 0.201391 0.028090
0.034745 0.201118 0.026962
0.061070 0.200644 0.026150
0.089699 0.200131 0.025270
0.120637 0.199574 0.024340
0.153888 0.198963 0.023467
0.189368 0.198277 0.023107
0.226608 0.197578 0.024030
0.265308 0.197053 0.025273
0.305752 0.196696 0.026060
0.348309 0.196417 0.026203
0.393204 0.196140 0.025793
0.440397 0.195825 0.024979
0.487194 0.195476 0.023951
0.532484 0.195106 0.022841
0.576214 0.194723 0.021710
0.618349 0.194334 0.020592
0.658860 0.193945 0.019504
0.697727 0.193562 0.018455
0.734936 0.193187 0.017450
0.770476 0.192823 0.016492
0.804340 0.192472 0.015583
0.836522 0.192135 0.014721
0.867017 0.191814 0.013908
0.895822 0.191509 0.013144
0.922935 0.191220 0.012427
0.948352 0.190949 0.011757
0.972073 0.190695 0.011134
0.994097 0.190459 0.010558
1.000000 0.190241 0.010028
1.000000 0.190093 0.009605
1.000000 0.190105 0.009382
0.000000 0.236412 0.025597
0.009911 0.236268 0.024384
0.033820 0.235982 0.023311
0.060120 0.235520 0.022511
0.088722 0.235019 0.021644
0.119629 0.234477 0.020717
0.152846 0.233891 0.019765
0.188368 0.233247 0.018945
0.226076 0.232530 0.018739
0.265539 0.231810 0.019740
0.306527 0.231247 0.021051
0.349239 0.230848 0.022017
0.393985 0.230545 0.022403
0.440862 0.230269 0.022227
0.487304 0.229990 0.021646
0.532263 0.229698 0.020832
0.575705 0.229390 0.019897
0.617594 0.229069 0.018908
0.657898 0.228742 0.017905
0.696593 0.228412 0.016912
0.733656 0.228084 0.015944
0.769075 0.227762 0.015010
0.802835 0.227447 0.014114
0.834930 0.227142 0.013261
0.865350 0.226849 0.012452
0.894092 0.226568 0.011688
0.921149 0.226302 0.010970
0.946519 0.226050 0.010298
0.970200 0.225813 0.009673
0.992188 0.225593 0.009093
1.000000 0.225388 0.008560
1.000000 0.225262 0.008151
1.000000 0.225275 0.007932
0.000000 0.273411 0.021713
0.008903 0.273273 0.020482
0.032865 0.272970 0.019476
0.059146 0.272517 0.018688
0.087729 0.272027 0.017833
0.118614 0.271498 0.016914
0.151804 0.270929 0.015947
0.187304 0.270312 0.014989
0.225095 0.269634 0.014236
0.265035 0.268888 0.014174
0.306732 0.268148 0.015243
0.350002 0.267551 0.016615
0.394990 0.267112 0.017731
0.441821 0.266782 0.018330
0.488047 0.266513 0.018392
0.532725 0.266266 0.018062
0.575878 0.266017 0.017481
0.617496 0.265761 0.016748
0.657557 0.265496 0.015930
0.696037 0.265225 0.015071
0.732914 0.264951 0.014201
0.768171 0.264677 0.013337
0.801791 0.264406 0.012494
0.833765 0.264140 0.011679
0.864080 0.263882 0.010897
0.892730 0.263633 0.010154
0.919709 0.263394 0.009451
0.945011 0.263167 0.008790
0.968631 0.262953 0.008172
0.990567 0.262752 0.007598
1.000000 0.262565 0.007069
1.000000 0.262461 0.006680
1.000000 0.262477 0.006464
0.000000 0.312541 0.017632
0.007855 0.312409 0.016389
0.031881 0.312085 0.015459
0.058148 0.311642 0.014681
0.086716 0.311161 0.013837
0.117584 0.310643 0.012928
0.150755 0.310087 0.011963
0.186232 0.309489 0.010964
0.224017 0.308841 0.010015
0.264078 0.308131 0.009340
0.306253 0.307358 0.009412
0.350191 0.306597 0.010541
0.395741 0.305970 0.011973
0.442875 0.305496 0.013217
0.489145 0.305155 0.013978
0.533703 0.304891 0.014265
0.576655 0.304662 0.014185
0.618040 0.304444 0.013847
0.657864 0.304229 0.013335
0.696118 0.304010 0.012711
0.732788 0.303788 0.012022
0.767856 0.303564 0.011299
0.801309 0.303339 0.010564
0.833133 0.303117 0.009834
0.863317 0.302898 0.009120
0.891850 0.302685 0.008429
0.918726 0.302479 0.007767
0.943937 0.302282 0.007139
0.967478 0.302094 0.006547
0.989344 0.301916 0.005994
1.000000 0.301751 0.005481
1.000000 0.301672 0.005119
1.000000 0.301690 0.004906
0.000000 0.353807 0.013359
0.006772 0.353681 0.012107
0.030869 0.353333 0.011261
0.057125 0.352898 0.010493
0.085682 0.352427 0.009659
0.116538 0.351918 0.008761
0.149695 0.351373 0.007802
0.185156 0.350790 0.006795
0.222923 0.350163 0.005776
0.262994 0.349485 0.004849
0.305322 0.348744 0.004257
0.349737 0.347946 0.004459
0.395923 0.347166 0.005642
0.443616 0.346512 0.007129
0.490221 0.346029 0.008422
0.534899 0.345679 0.009317
0.577821 0.345412 0.009812
0.619085 0.345191 0.009973
0.658740 0.344993 0.009878
0.696805 0.344805 0.009596
0.733281 0.344622 0.009184
0.768162 0.344439 0.008685
0.801439 0.344257 0.008132
0.833100 0.344076 0.007548
0.863134 0.343897 0.006952
0.891534 0.343721 0.006358
0.918288 0.343550 0.005776
0.943391 0.343384 0.005213
0.966835 0.343226 0.004675
0.988615 0.343075 0.004166
1.000000 0.342933 0.003689
1.000000 0.342878 0.003362
1.000000 0.342899 0.003153
0.000000 0.397213 0.008899
0.005654 0.397093 0.007640
0.029830 0.396718 0.006887
0.056079 0.396291 0.006127
0.084627 0.395828 0.005303
0.115474 0.395329 0.004415
0.148622 0.394794 0.003465
0.184070 0.394223 0.002460
0.221823 0.393612 0.001418
0.261882 0.392958 0.000389
0.304239 0.392250 0.000000
0.348836 0.391480 0.000000
0.395494 0.390658 0.000000
0.443796 0.389862 0.000546
0.490930 0.389217 0.002005
0.535962 0.388731 0.003316
0.579067 0.388369 0.004324
0.620382 0.388091 0.005004
0.659995 0.387867 0.005388
0.697959 0.387677 0.005528
0.734302 0.387506 0.005478
0.769034 0.387347 0.005285
0.802155 0.387193 0.004989
0.833664 0.387044 0.004620
0.863552 0.386898 0.004205
0.891814 0.386755 0.003762
0.918441 0.386616 0.003306
0.943427 0.386481 0.002849
0.966764 0.386351 0.002400
0.988448 0.386227 0.001966
1.000000 0.386109 0.001553
1.000000 0.386077 0.001268
1.000000 0.386101 0.001062
0.000000 0.442762 0.004257
0.004545 0.442632 0.003033
0.028767 0.442244 0.002339
0.055010 0.441825 0.001588
0.083552 0.441371 0.000773
0.114393 0.440881 0.000000
0.147533 0.440356 0.000000
0.182974 0.439795 0.000000
0.220716 0.439198 0.000000
0.260764 0.438561 0.000000
0.303117 0.437879 0.000000
0.347760 0.437143 0.000000
0.394625 0.436346 0.000000
0.443394 0.435504 0.000000
0.491082 0.434733 0.000000
0.536608 0.434105 0.000000
0.580081 0.433614 0.000000
0.621629 0.433236 0.000000
0.661362 0.432942 0.000000
0.699358 0.432709 0.000400
0.735670 0.432516 0.000757
0.770329 0.432351 0.000929
0.803352 0.432203 0.000953
0.834748 0.432068 0.000863
0.864518 0.431941 0.000688
0.892660 0.431821 0.000452
0.919170 0.431705 0.000174
0.944045 0.431595 0.000000
0.967277 0.431489 0.000000
0.988864 0.431388 0.000000
1.000000 0.431293 0.000000
1.000000 0.431281 0.000000
1.000000 0.431308 0.000000
0.000000 0.488592 0.000000
0.003507 0.488431 0.000000
0.027725 0.488050 0.000000
0.053964 0.487638 0.000000
0.082502 0.487191 0.000000
0.113338 0.486710 0.000000
0.146474 0.486194 0.000000
0.181909 0.485643 0.000000
0.219645 0.485058 0.000000
0.259684 0.484436 0.000000
0.302029 0.483773 0.000000
0.346677 0.483063 0.000000
0.393605 0.482299 0.000000
0.442596 0.481478 0.000000
0.490703 0.480664 0.000000
0.536706 0.479932 0.000000
0.580622 0.479320 0.000000
0.622529 0.478827 0.000000
0.662520 0.478437 0.000000
0.700683 0.478127 0.000000
0.737085 0.477880 0.000000
0.771775 0.477679 0.000000
0.804786 0.477511 0.000000
0.836139 0.477366 0.000000
0.865845 0.477239 0.000000
0.893912 0.477124 0.000000
0.920340 0.477019 0.000000
0.945129 0.476921 0.000000
0.968278 0.476830 0.000000
0.989783 0.476745 0.000000
1.000000 0.476666 0.000000
1.000000 0.476670 0.000000
1.000000 0.476701 0.000000
0.000000 0.532856 0.000000
0.002527 0.532664 0.000000
0.026743 0.532289 0.000000
0.052980 0.531884 0.000000
0.081515 0.531444 0.000000
0.112349 0.530971 0.000000
0.145482 0.530463 0.000000
0.180914 0.529922 0.000000
0.218646 0.529347 0.000000
0.258680 0.528736 0.000000
0.301018 0.528089 0.000000
0.345662 0.527399 0.000000
0.392605 0.526661 0.000000
0.441675 0.525870 0.000000
0.489998 0.525072 0.000000
0.536357 0.524302 0.000000
0.580672 0.523608 0.000000
0.622959 0.523017 0.000000
0.663276 0.522529 0.000000
0.701694 0.522133 0.000000
0.738283 0.521813 0.000000
0.773097 0.521554 0.000000
0.806182 0.521343 0.000000
0.837568 0.521168 0.000000
0.867278 0.521021 0.000000
0.895326 0.520894 0.000000
0.921720 0.520784 0.000000
0.946465 0.520686 0.000000
0.969564 0.520598 0.000000
0.991016 0.520518 0.000000
1.000000 0.520446 0.000000
1.000000 0.520463 0.000000
1.000000 0.520497 0.000000
0.000000 0.575550 0.000000
0.001605 0.575329 0.000000
0.025819 0.574960 0.000000
0.052055 0.574561 0.000000
0.080589 0.574128 0.000000
0.111421 0.573661 0.000000
0.144552 0.573161 0.000000
0.179982 0.572629 0.000000
0.217712 0.572062 0.000000
0.257743 0.571462 0.000000
0.300077 0.570827 0.000000
0.344717 0.570154 0.000000
0.391661 0.569437 0.000000
0.440757 0.568672 0.000000
0.489171 0.567899 0.000000
0.535734 0.567140 0.000000
0.580353 0.566414 0.000000
0.622975 0.565756 0.000000
0.663619 0.565188 0.000000
0.702328 0.564710 0.000000
0.739157 0.564314 0.000000
0.774161 0.563989 0.000000
0.807386 0.563722 0.000000
0.838871 0.563502 0.000000
0.868645 0.563320 0.000000
0.896728 0.563167 0.000000
0.923137 0.563038 0.000000
0.947881 0.562927 0.000000
0.970966 0.562831 0.000000
0.992397 0.562747 0.000000
1.000000 0.562673 0.000000
1.000000 0.562701 0.000000
1.000000 0.562739 0.000000
0.000000 0.616672 0.000000
0.000737 0.616422 0.000000
0.024950 0.616058 0.000000
0.051185 0.615665 0.000000
0.079718 0.615238 0.000000
0.110550 0.614778 0.000000
0.143681 0.614286 0.000000
0.179110 0.613761 0.000000
0.216839 0.613203 0.000000
0.256868 0.612612 0.000000
0.299200 0.611988 0.000000
0.343836 0.611328 0.000000
0.390778 0.610628 0.000000
0.439883 0.609884 0.000000
0.488335 0.609135 0.000000
0.534995 0.608398 0.000000
0.579802 0.607679 0.000000
0.622686 0.606993 0.000000
0.663614 0.606371 0.000000
0.702603 0.605827 0.000000
0.739688 0.605363 0.000000
0.774912 0.604972 0.000000
0.808320 0.604646 0.000000
0.839949 0.604374 0.000000
0.869833 0.604148 0.000000
0.897998 0.603960 0.000000
0.924464 0.603802 0.000000
0.949245 0.603668 0.000000
0.972352 0.603555 0.000000
0.993793 0.603458 0.000000
1.000000 0.603375 0.000000
1.000000 0.603414 0.000000
1.000000 0.603455 0.000000
0.000000 0.656218 0.000000
0.000000 0.655941 0.000000
0.024134 0.655582 0.000000
0.050369 0.655194 0.000000
0.078902 0.654773 0.000000
0.109734 0.654320 0.000000
0.142864 0.653834 0.000000
0.178294 0.653316 0.000000
0.216022 0.652766 0.000000
0.256052 0.652184 0.000000
0.298382 0.651569 0.000000
0.343017 0.650920 0.000000
0.389957 0.650234 0.000000
0.439063 0.649509 0.000000
0.487530 0.648781 0.000000
0.534236 0.648065 0.000000
0.579142 0.647362 0.000000
0.622199 0.646682 0.000000
0.663353 0.646034 0.000000
0.702584 0.645447 0.000000
0.739909 0.644929 0.000000
0.775357 0.644481 0.000000
0.808963 0.644099 0.000000
0.840762 0.643776 0.000000
0.870787 0.643503 0.000000
0.899066 0.643274 0.000000
0.925621 0.643081 0.000000
0.950471 0.642919 0.000000
0.973629 0.642781 0.000000
0.995107 0.642665 0.000000
1.000000 0.642574 0.000000
1.000000 0.642619 0.000000
1.000000 0.642663 0.000000
0.000000 0.694186 0.000000
0.000000 0.693883 0.000000
0.023368 0.693528 0.000000
0.049603 0.693145 0.000000
0.078136 0.692730 0.000000
0.108968 0.692283 0.000000
0.142099 0.691803 0.000000
0.177529 0.691292 0.000000
0.215259 0.690749 0.000000
0.255288 0.690175 0.000000
0.297619 0.689569 0.000000
0.342253 0.688930 0.000000
0.389192 0.688256 0.000000
0.438298 0.687546 0.000000
0.486771 0.686835 0.000000
0.533499 0.686138 0.000000
0.578457 0.685455 0.000000
0.621612 0.684788 0.000000
0.662923 0.684144 0.000000
0.702349 0.683534 0.000000
0.739882 0.682980 0.000000
0.775537 0.682488 0.000000
0.809337 0.682059 0.000000
0.841313 0.681688 0.000000
0.871492 0.681371 0.000000
0.899902 0.681101 0.000000
0.926568 0.680871 0.000000
0.951509 0.680677 0.000000
0.974740 0.680512 0.000000
0.996277 0.680372 0.000000
1.000000 0.680274 0.000000
1.000000 0.680321 0.000000
1.000000 0.680369 0.000000
0.000000 0.730573 0.000000
0.000000 0.730244 0.000000
0.022649 0.729895 0.000000
0.048885 0.729516 0.000000
0.077419 0.729106 0.000000
0.108252 0.728664 0.000000
0.141384 0.728191 0.000000
0.176815 0.727686 0.000000
0.214545 0.727150 0.000000
0.254576 0.726584 0.000000
0.296907 0.725986 0.000000
0.341541 0.725356 0.000000
0.388479 0.724692 0.000000
0.437586 0.723995 0.000000
0.486061 0.723299 0.000000
0.532799 0.722619 0.000000
0.577785 0.721953 0.000000
0.620996 0.721301 0.000000
0.662402 0.720668 0.000000
0.701971 0.720061 0.000000
0.739672 0.719487 0.000000
0.775505 0.718965 0.000000
0.809483 0.718499 0.000000
0.841627 0.718090 0.000000
0.871961 0.717733 0.000000
0.900510 0.717425 0.000000
0.927296 0.717160 0.000000
0.952341 0.716933 0.000000
0.975660 0.716739 0.000000
0.997270 0.716574 0.000000
1.000000 0.716469 0.000000
1.000000 0.716520 0.000000
1.000000 0.716571 0.000000
0.000000 0.765351 0.000000
0.000000 0.765024 0.000000
0.021977 0.764678 0.000000
0.048213 0.764304 0.000000
0.076748 0.763899 0.000000
0.107582 0.763462 0.000000
0.140715 0.762994 0.000000
0.176148 0.762496 0.000000
0.213879 0.761966 0.000000
0.253911 0.761406 0.000000
0.296244 0.760816 0.000000
0.340878 0.760194 0.000000
0.387817 0.759541 0.000000
0.436923 0.758854 0.000000
0.485400 0.758172 0.000000
0.532143 0.757506 0.000000
0.577144 0.756855 0.000000
0.620387 0.756219 0.000000
0.661850 0.755600 0.000000
0.701510 0.755001 0.000000
0.739339 0.754428 0.000000
0.775318 0.753889 0.000000
0.809449 0.753398 0.000000
0.841745 0.752958 0.000000
0.872225 0.752569 0.000000
0.900909 0.752228 0.000000
0.927818 0.751931 0.000000
0.952971 0.751674 0.000000
0.976385 0.751453 0.000000
0.998077 0.751262 0.000000
1.000000 0.751154 0.000000
1.000000 0.751208 0.000000
1.000000 0.751261 0.000000
0.000000 0.798542 0.000000
0.000000 0.798218 0.000000
0.021348 0.797876 0.000000
0.047586 0.797506 0.000000
0.076122 0.797106 0.000000
0.106957 0.796674 0.000000
0.140091 0.796211 0.000000
0.175525 0.795718 0.000000
0.213258 0.795195 0.000000
0.253292 0.794642 0.000000
0.295626 0.794058 0.000000
0.340262 0.793444 0.000000
0.387201 0.792799 0.000000
0.436308 0.792123 0.000000
0.484785 0.791452 0.000000
0.531531 0.790798 0.000000
0.576541 0.790161 0.000000
0.619802 0.789539 0.000000
0.661300 0.788933 0.000000
0.701018 0.788346 0.000000
0.738933 0.787780 0.000000
0.775026 0.787241 0.000000
0.809284 0.786735 0.000000
0.841711 0.786274 0.000000
0.872322 0.785861 0.000000
0.901131 0.785493 0.000000
0.928157 0.785169 0.000000
0.953417 0.784885 0.000000
0.976927 0.784638 0.000000
0.998703 0.784424 0.000000
1.000000 0.784315 0.000000
1.000000 0.784372 0.000000
1.000000 0.784428 0.000000
0.000000 0.830145 0.000000
0.000000 0.829824 0.000000
0.020762 0.829486 0.000000
0.047000 0.829121 0.000000
0.075538 0.828724 0.000000
0.106374 0.828297 0.000000
0.139510 0.827840 0.000000
0.174945 0.827352 0.000000
0.212680 0.826834 0.000000
0.252715 0.826287 0.000000
0.295051 0.825710 0.000000
0.339688 0.825104 0.000000
0.386629 0.824466 0.000000
0.435737 0.823799 0.000000
0.484215 0.823138 0.000000
0.530963 0.822495 0.000000
0.575977 0.821870 0.000000
0.619250 0.821261 0.000000
0.660770 0.820668 0.000000
0.700524 0.820092 0.000000
0.738496 0.819535 0.000000
0.774669 0.819002 0.000000
0.809028 0.818495 0.000000
0.841566 0.818022 0.000000
0.872289 0.817591 0.000000
0.901210 0.817202 0.000000
0.928343 0.816856 0.000000
0.953704 0.816550 0.000000
0.977307 0.816281 0.000000
0.999166 0.816046 0.000000
1.000000 0.815940 0.000000
1.000000 0.815999 0.000000
1.000000 0.816058 0.000000
0.000000 0.860159 0.000000
0.000000 0.859841 0.000000
0.020216 0.859507 0.000000
0.046455 0.859145 0.000000
0.074994 0.858752 0.000000
0.105832 0.858330 0.000000
0.138969 0.857877 0.000000
0.174406 0.857394 0.000000
0.212143 0.856882 0.000000
0.252180 0.856341 0.000000
0.294517 0.855770 0.000000
0.339156 0.855170 0.000000
0.386099 0.854540 0.000000
0.435207 0.853881 0.000000
0.483687 0.853228 0.000000
0.530436 0.852595 0.000000
0.575453 0.851981 0.000000
0.618733 0.851383 0.000000
0.660267 0.850801 0.000000
0.700045 0.850237 0.000000
0.738055 0.849690 0.000000
0.774283 0.849165 0.000000
0.808715 0.848662 0.000000
0.841343 0.848188 0.000000
0.872161 0.847745 0.000000
0.901179 0.847343 0.000000
0.928407 0.846980 0.000000
0.953859 0.846655 0.000000
0.977548 0.846368 0.000000
0.999487 0.846115 0.000000
1.000000 0.846015 0.000000
1.000000 0.846077 0.000000
1.000000 0.846138 0.000000
0.000000 0.888581 0.000000
0.000000 0.888266 0.000000
0.019708 0.887935 0.000000
0.045949 0.887577 0.000000
0.074489 0.887188 0.000000
0.105328 0.886769 0.000000
0.138467 0.886321 0.000000
0.173906 0.885843 0.000000
0.211644 0.885336 0.000000
0.251683 0.884800 0.000000
0.294022 0.884235 0.000000
0.338664 0.883641 0.000000
0.385608 0.883018 0.000000
0.434718 0.882366 0.000000
0.483198 0.881722 0.000000
0.529949 0.881098 0.000000
0.574968 0.880492 0.000000
0.618252 0.879904 0.000000
0.659796 0.879333 0.000000
0.699590 0.878779 0.000000
0.737625 0.878242 0.000000
0.773891 0.877725 0.000000
0.808376 0.877230 0.000000
0.841070 0.876758 0.000000
0.871967 0.876314 0.000000
0.901067 0.875902 0.000000
0.928378 0.875527 0.000000
0.953911 0.875189 0.000000
0.977678 0.874887 0.000000
0.999690 0.874619 0.000000
1.000000 0.874528 0.000000
1.000000 0.874592 0.000000
1.000000 0.874655 0.000000
0.000000 0.915409 0.000000
0.000000 0.915097 0.000000
0.019238 0.914769 0.000000
0.045479 0.914414 0.000000
0.074021 0.914029 0.000000
0.104862 0.913614 0.000000
0.138002 0.913170 0.000000
0.173442 0.912697 0.000000
0.211183 0.912194 0.000000
0.251223 0.911663 0.000000
0.293565 0.911104 0.000000
0.338208 0.910515 0.000000
0.385154 0.909898 0.000000
0.434266 0.909253 0.000000
0.482747 0.908616 0.000000
0.529499 0.908000 0.000000
0.574520 0.907403 0.000000
0.617808 0.906824 0.000000
