assets/luts/warm_marke.cube
TITLE "Warm Marke"
# Waermer und satter, Schatten ins Blaugruene. Der uebliche Werbelook fuer Talking Heads. Bei sehr heller Haut kann es schnell zu orange werden — dann Temperatur runter.
# erzeugt von tools/make_lut.py aus assets/luts/looks.json (warm_marke)
LUT_3D_SIZE 9
DOMAIN_MIN 0.0 0.0 0.0
DOMAIN_MAX 1.0 1.0 1.0
0.000000 0.015907 0.049089
0.095731 0.014132 0.046112
0.231044 0.012198 0.041989
0.402037 0.009921 0.037265
0.588017 0.007506 0.032299
0.747810 0.005470 0.028107
0.880346 0.003807 0.024670
0.985619 0.002502 0.021962
1.000000 0.001738 0.020139
0.000000 0.109658 0.038996
0.092649 0.108099 0.035145
0.225328 0.106553 0.035672
0.395139 0.104717 0.030994
0.580908 0.102476 0.025950
0.740659 0.100541 0.021755
0.873187 0.098951 0.018340
0.978461 0.097701 0.015660
1.000000 0.097009 0.013904
0.000000 0.236412 0.025597
0.088722 0.235019 0.021644
0.226076 0.232530 0.018739
0.393985 0.230545 0.022403
0.575705 0.229390 0.019897
0.733656 0.228084 0.015944
0.865350 0.226849 0.012452
0.970200 0.225813 0.009673
1.000000 0.225275 0.007932
0.000000 0.397213 0.008899
0.084627 0.395828 0.005303
0.221823 0.393612 0.001418
0.395494 0.390658 0.000000
0.579067 0.388369 0.004324
0.734302 0.387506 0.005478
0.863552 0.386898 0.004205
0.966764 0.386351 0.002400
1.000000 0.386101 0.001062
0.000000 0.575550 0.000000
0.080589 0.574128 0.000000
0.217712 0.572062 0.000000
0.391661 0.569437 0.000000
0.580353 0.566414 0.000000
0.739157 0.564314 0.000000
0.868645 0.563320 0.000000
0.970966 0.562831 0.000000
1.000000 0.562739 0.000000
0.000000 0.730573 0.000000
0.077419 0.729106 0.000000
0.214545 0.727150 0.000000
0.388479 0.724692 0.000000
0.577785 0.721953 0.000000
0.739672 0.719487 0.000000
0.871961 0.717733 0.000000
0.975660 0.716739 0.000000
1.000000 0.716571 0.000000
0.000000 0.860159 0.000000
0.074994 0.858752 0.000000
0.212143 0.856882 0.000000
0.386099 0.854540 0.000000
0.575453 0.851981 0.000000
0.738055 0.849690 0.000000
0.872161 0.847745 0.000000
0.977548 0.846368 0.000000
1.000000 0.846138 0.000000
0.000000 0.964276 0.000000
0.073190 0.962920 0.000000
0.210365 0.961116 0.000000
0.384351 0.958860 0.000000
0.573730 0.956417 0.000000
0.736472 0.954268 0.000000
0.871202 0.952412 0.000000
0.977618 0.950932 0.000000
1.000000 0.950721 0.000000
0.000000 1.000000 0.000000
0.073098 1.000000 0.000000
0.210318 1.000000 0.000000
0.384363 1.000000 0.000000
0.573791 1.000000 0.000000
0.736595 1.000000 0.000000
0.871514 1.000000 0.000000
0.978301 1.000000 0.000000
1.000000 1.000000 0.000000
0.000000 0.015347 0.144932
0.095388 0.013555 0.142352
0.232236 0.011205 0.137899
0.404878 0.008521 0.132445
0.591830 0.005889 0.126873
0.752099 0.003756 0.122328
0.884898 0.002043 0.118676
0.990329 0.000710 0.115834
1.000000 0.000000 0.113944
0.000000 0.109112 0.134855
0.092101 0.107483 0.132549
0.230235 0.104869 0.127666
0.401814 0.102544 0.122718
0.588038 0.100169 0.117754
0.747966 0.098186 0.113608
0.880592 0.096571 0.110220
0.985929 0.095306 0.107556
1.000000 0.094612 0.105806
0.000000 0.235881 0.121482
0.087331 0.234860 0.117245
0.225896 0.232158 0.112956
0.393845 0.230322 0.115112
0.578268 0.228596 0.110400
0.737854 0.226849 0.106094
0.870412 0.225362 0.102620
0.975746 0.224181 0.099920
1.000000 0.223586 0.098231
0.000000 0.396702 0.104843
0.082737 0.395945 0.099937
0.220553 0.393619 0.095390
0.395511 0.390358 0.092624
0.578689 0.388136 0.098233
0.734264 0.387328 0.097931
0.864389 0.386573 0.095617
0.968364 0.385860 0.093260
1.000000 0.385533 0.091738
0.000000 0.575063 0.086936
0.078270 0.574472 0.081780
0.215994 0.572264 0.077729
0.390790 0.569437 0.072909
0.580451 0.566170 0.071705
0.739164 0.564013 0.077182
0.868352 0.563129 0.080262
0.970667 0.562700 0.081069
1.000000 0.562620 0.080672
0.000000 0.730107 0.071849
0.074958 0.729548 0.066806
0.212621 0.727455 0.062999
0.387225 0.724832 0.058259
0.577284 0.721926 0.053970
0.739814 0.719283 0.054449
0.872154 0.717446 0.058885
0.975659 0.716487 0.062384
1.000000 0.716347 0.063036
0.000000 0.859811 0.059573
0.072501 0.859236 0.054750
0.210107 0.857251 0.051064
0.384637 0.854766 0.046453
0.574611 0.852065 0.041776
0.737794 0.849648 0.039299
0.872331 0.847573 0.040608
0.977809 0.846120 0.043978
1.000000 0.845889 0.044734
0.000000 0.964026 0.049935
0.070681 0.963433 0.045313
0.208265 0.961527 0.041717
0.382765 0.959143 0.037211
0.572695 0.956571 0.032508
0.735932 0.954315 0.029235
0.871106 0.952359 0.028281
0.977809 0.950788 0.029847
1.000000 0.950563 0.030235
0.000000 1.000000 0.043929
0.070593 1.000000 0.039487
0.208200 1.000000 0.035976
0.382732 1.000000 0.031578
0.572694 1.000000 0.026955
0.735971 1.000000 0.023544
0.871302 1.000000 0.022001
0.978398 1.000000 0.022538
1.000000 1.000000 0.022590
0.000000 0.014591 0.274649
0.094889 0.012834 0.272138
0.231839 0.010442 0.267902
0.405273 0.007537 0.262431
0.593573 0.004547 0.256572
0.754885 0.002153 0.251653
0.888385 0.000273 0.247684
0.994276 0.000000 0.244606
1.000000 0.000000 0.242590
0.000000 0.108374 0.264593
0.091804 0.106588 0.263703
0.230327 0.103809 0.259408
0.404620 0.100827 0.253096
0.592686 0.098043 0.246902
0.753506 0.095880 0.242024
0.886606 0.094178 0.238197
0.992217 0.092868 0.235260
1.000000 0.092157 0.233380
0.000000 0.235163 0.251267
0.086953 0.233966 0.248945
0.225325 0.231324 0.244732
0.399871 0.228331 0.239047
0.586997 0.225851 0.233989
0.747376 0.223862 0.229857
0.880275 0.222271 0.226508
0.985789 0.221036 0.223886
1.000000 0.220426 0.222230
0.000000 0.396011 0.234703
0.082333 0.395169 0.230964
0.218732 0.393391 0.225251
0.395360 0.389777 0.221195
0.577986 0.387913 0.225014
0.735745 0.386766 0.221755
0.867787 0.385562 0.218335
0.972987 0.384531 0.215596
1.000000 0.384082 0.213990
0.000000 0.574405 0.216856
0.077917 0.573755 0.212508
0.213542 0.572398 0.206313
0.389481 0.569292 0.201019
0.580464 0.565720 0.199071
0.738757 0.563629 0.205244
0.867699 0.562940 0.207216
0.970397 0.562528 0.206812
1.000000 0.562425 0.205947
0.000000 0.729477 0.201815
0.074447 0.728949 0.197217
0.209916 0.727759 0.191031
0.385433 0.724907 0.185995
0.576489 0.721785 0.181047
0.739913 0.718915 0.181272
0.872188 0.717023 0.186534
0.975337 0.716171 0.190094
1.000000 0.716083 0.190606
0.000000 0.859205 0.189575
0.071783 0.858764 0.184858
0.207267 0.857658 0.178800
0.382576 0.854978 0.173953
0.573383 0.852084 0.168876
0.737344 0.849506 0.165811
0.872482 0.847260 0.167140
0.978026 0.845730 0.171154
1.000000 0.845510 0.172049
0.000000 0.963439 0.179965
0.069792 0.963061 0.175190
0.205347 0.962001 0.169279
0.380545 0.959443 0.164571
0.571219 0.956694 0.159569
0.735113 0.954299 0.155847
0.870892 0.952213 0.154503
0.977994 0.950517 0.156206
1.000000 0.950273 0.156736
0.000000 1.000000 0.173990
0.069582 1.000000 0.169216
0.205261 1.000000 0.163467
0.380455 1.000000 0.158880
0.571126 1.000000 0.153994
0.735017 1.000000 0.150203
0.870908 1.000000 0.148260
0.978448 1.000000 0.148669
1.000000 1.000000 0.148739
0.000000 0.013639 0.438611
0.094378 0.011898 0.436128
0.231238 0.009541 0.431930
0.404829 0.006586 0.426646
0.593550 0.003484 0.420827
0.755568 0.000897 0.415885
0.889772 0.000000 0.411816
0.996233 0.000000 0.408612
1.000000 0.000000 0.406518
0.000000 0.107444 0.428582
0.091389 0.105594 0.428279
0.229225 0.103004 0.424259
0.404123 0.099780 0.418720
0.593304 0.096721 0.412137
0.755398 0.094238 0.406830
0.889509 0.092289 0.402593
0.995830 0.090811 0.399324
1.000000 0.090024 0.397271
0.000000 0.234253 0.415308
0.087110 0.232778 0.414169
0.224741 0.230163 0.411989
0.401427 0.226565 0.406157
0.591615 0.223393 0.399105
0.753703 0.221042 0.393680
0.887500 0.219277 0.389522
0.993516 0.217954 0.386394
1.000000 0.217316 0.384514
0.000000 0.395141 0.398858
0.081838 0.394185 0.396590
0.218090 0.392264 0.392866
0.394962 0.388771 0.387039
0.583842 0.385977 0.381838
0.745199 0.383869 0.377648
0.878660 0.382247 0.374308
0.984523 0.381014 0.371715
1.000000 0.380509 0.370178
0.000000 0.573575 0.381084
0.077472 0.572853 0.377757
0.212890 0.571443 0.372818
0.387636 0.568862 0.365992
0.580269 0.564958 0.362644
0.737481 0.563330 0.367566
0.867592 0.562647 0.366164
0.971992 0.561930 0.363854
1.000000 0.561685 0.362448
0.000000 0.728684 0.366100
0.074046 0.728100 0.362308
0.209100 0.726972 0.356847
0.383010 0.724819 0.349775
0.575294 0.721423 0.344099
0.739875 0.718296 0.343601
0.871688 0.716495 0.349444
0.974346 0.715888 0.352122
1.000000 0.715871 0.352114
0.000000 0.858443 0.353904
0.071413 0.857954 0.349874
0.206284 0.857009 0.344151
0.379837 0.855092 0.337072
0.571694 0.851945 0.331576
0.736608 0.849185 0.327658
0.872538 0.846736 0.328792
0.978002 0.845173 0.333468
1.000000 0.844997 0.334434
0.000000 0.962701 0.344329
0.069446 0.962281 0.340168
0.204218 0.961462 0.334304
0.377616 0.959687 0.327295
0.569237 0.956706 0.321970
0.733937 0.954142 0.317698
0.870484 0.951907 0.315687
0.978109 0.950059 0.317455
1.000000 0.949799 0.318128
0.000000 1.000000 0.338392
0.069261 1.000000 0.334199
0.204033 1.000000 0.328310
0.377463 1.000000 0.321436
0.569034 1.000000 0.316261
0.733685 1.000000 0.312026
0.870273 1.000000 0.309469
0.978401 1.000000 0.309586
1.000000 1.000000 0.309670
0.000000 0.012577 0.622363
0.093846 0.010843 0.619894
0.230666 0.008510 0.615721
0.404207 0.005584 0.610470
0.593075 0.002442 0.604807
0.755253 0.000000 0.599897
0.889728 0.000000 0.595866
0.996494 0.000000 0.592680
1.000000 0.000000 0.590598
0.000000 0.106408 0.612365
0.090913 0.104525 0.612360
0.228421 0.102034 0.608469
0.402892 0.098941 0.603066
0.592781 0.095615 0.597234
0.755205 0.093067 0.591760
0.889799 0.090999 0.587423
0.996610 0.089395 0.584059
1.000000 0.088543 0.581954
0.000000 0.233240 0.599146
0.086926 0.231635 0.598582
0.224205 0.229040 0.597383
0.399938 0.225711 0.591863
0.591184 0.222149 0.585753
0.754189 0.219594 0.579813
0.889052 0.217569 0.575236
0.995939 0.216034 0.571742
1.000000 0.215301 0.569677
0.000000 0.394154 0.582790
0.082069 0.392930 0.581475
0.218410 0.390844 0.579252
0.394179 0.387477 0.575606
0.587143 0.383619 0.569106
0.751250 0.380893 0.563105
0.886324 0.378930 0.558535
0.993080 0.377523 0.555143
1.000000 0.376962 0.553282
0.000000 0.572650 0.565147
0.076976 0.571845 0.562964
0.212291 0.570324 0.559565
0.386738 0.567673 0.554493
0.579884 0.563917 0.548366
0.741375 0.561904 0.544659
0.875755 0.560173 0.541204
0.982199 0.558891 0.538579
1.000000 0.558494 0.537165
0.000000 0.727799 0.550224
0.073598 0.727152 0.547336
0.208573 0.725939 0.543091
0.381993 0.723839 0.537117
0.573753 0.720746 0.530170
0.739579 0.717410 0.528238
0.870088 0.716146 0.532740
0.973421 0.715687 0.532076
1.000000 0.715619 0.531029
0.000000 0.857592 0.538077
0.071001 0.857050 0.534817
0.205806 0.856034 0.530129
0.378678 0.854273 0.523689
0.569636 0.851574 0.516597
0.735552 0.848623 0.511791
0.872407 0.845981 0.512245
0.977321 0.844556 0.517281
1.000000 0.844493 0.518010
0.000000 0.961877 0.528541
0.069060 0.961411 0.525068
0.203775 0.960529 0.520128
0.376329 0.958993 0.513427
0.566864 0.956533 0.506323
0.732450 0.953771 0.501572
0.869831 0.951401 0.498585
0.978073 0.949396 0.500203
1.000000 0.949135 0.501005
0.000000 1.000000 0.522647
0.068904 1.000000 0.519105
0.203623 1.000000 0.514092
0.376095 1.000000 0.507328
0.566545 1.000000 0.500327
0.732045 1.000000 0.495709
0.869372 1.000000 0.492388
0.978199 1.000000 0.491908
1.000000 1.000000 0.491989
0.000000 0.011652 0.783106
0.093394 0.009922 0.780642
0.230198 0.007604 0.776487
0.403719 0.004698 0.771258
0.592566 0.001577 0.765619
0.754846 0.000000 0.760816
0.889372 0.000000 0.756799
0.996213 0.000000 0.753635
1.000000 0.000000 0.751576
0.000000 0.105505 0.773134
0.090497 0.103606 0.773281
0.227848 0.101167 0.769450
0.402117 0.098143 0.764119
0.591783 0.094893 0.758366
0.754767 0.092135 0.753460
0.889444 0.090064 0.749031
0.996381 0.088436 0.745629
1.000000 0.087570 0.743521
0.000000 0.232359 0.759961
0.086661 0.230693 0.759679
0.223772 0.228112 0.758958
0.399051 0.224919 0.753585
0.589833 0.221492 0.747670
0.753718 0.218606 0.742561
0.888766 0.216560 0.737764
0.995921 0.214968 0.734150
1.000000 0.214202 0.732043
0.000000 0.393302 0.743672
0.082015 0.391951 0.742817
0.218401 0.389792 0.741317
0.393632 0.386494 0.738719
0.585844 0.382840 0.732584
0.750866 0.379795 0.727196
0.886631 0.377679 0.722227
0.994165 0.376083 0.718511
1.000000 0.375437 0.716501
0.000000 0.571823 0.726124
0.077143 0.570826 0.724619
0.212710 0.569140 0.722235
0.386914 0.566429 0.718616
0.579380 0.562760 0.713805
0.745759 0.559500 0.708202
0.882450 0.557232 0.703381
0.990141 0.555686 0.699804
1.000000 0.555219 0.698048
0.000000 0.727028 0.711300
0.073209 0.726325 0.709202
0.208115 0.725038 0.706021
0.381446 0.722843 0.701395
0.572899 0.719742 0.695612
0.739292 0.716553 0.690695
0.872440 0.715208 0.688356
0.979455 0.713877 0.685579
1.000000 0.713584 0.684265
0.000000 0.856850 0.699195
0.070643 0.856263 0.696608
0.205391 0.855185 0.692825
0.378190 0.853345 0.687532
0.568639 0.850743 0.681144
0.734467 0.847921 0.675459
0.872053 0.845192 0.674752
0.975766 0.844256 0.678569
1.000000 0.844317 0.678302
0.000000 0.961160 0.689692
0.068726 0.960653 0.686820
0.203390 0.959718 0.682689
0.375880 0.958112 0.677013
0.565737 0.955833 0.670283
0.731028 0.953270 0.664569
0.869067 0.950805 0.660712
0.977871 0.948690 0.661850
1.000000 0.948461 0.662752
0.000000 1.000000 0.683836
0.068595 1.000000 0.680863
0.203267 1.000000 0.676616
0.375680 1.000000 0.670825
0.565346 1.000000 0.664009
0.730496 1.000000 0.658383
0.868423 1.000000 0.654501
0.977888 1.000000 0.653138
1.000000 1.000000 0.653178
0.000000 0.010878 0.918018
0.093022 0.009151 0.915557
0.229818 0.006844 0.911415
0.403330 0.003952 0.906202
0.592167 0.000846 0.900581
0.754440 0.000000 0.895793
0.889038 0.000000 0.891852
0.995899 0.000000 0.888695
1.000000 0.000000 0.886650
0.000000 0.104750 0.908068
0.090148 0.102842 0.908307
0.227414 0.100435 0.904508
0.401570 0.097453 0.899221
0.591113 0.094249 0.893517
0.753995 0.091529 0.888658
0.889087 0.089302 0.884642
0.996053 0.087679 0.881193
1.000000 0.086820 0.879076
0.000000 0.231622 0.894934
0.086404 0.229924 0.894814
0.223423 0.227353 0.894366
0.398448 0.224241 0.889075
0.588950 0.220901 0.883253
0.752661 0.218065 0.878291
0.888379 0.215766 0.874125
0.995587 0.214178 0.870395
1.000000 0.213416 0.868254
0.000000 0.392592 0.878695
0.081885 0.391172 0.878102
0.218299 0.388973 0.877011
0.393230 0.385719 0.875000
0.584960 0.382207 0.869018
0.749731 0.379220 0.863916
0.886223 0.376838 0.859536
0.993893 0.375229 0.855630
1.000000 0.374573 0.853564
0.000000 0.571139 0.861215
0.077168 0.570029 0.860086
0.212900 0.568247 0.858268
0.386971 0.565507 0.855467
0.578861 0.561928 0.851598
0.744816 0.558773 0.846330
0.882219 0.556277 0.841768
0.990581 0.554570 0.837888
1.000000 0.554028 0.836010
0.000000 0.726364 0.846463
0.073313 0.725527 0.844860
0.208445 0.724110 0.842398
0.381765 0.721831 0.838773
0.572846 0.718734 0.834184
0.739089 0.715568 0.829604
0.877388 0.712929 0.825002
0.986241 0.711154 0.821299
1.000000 0.710766 0.819664
0.000000 0.856231 0.834428
0.070344 0.855605 0.832406
0.205044 0.854475 0.829383
0.377781 0.852569 0.825052
0.568164 0.849896 0.819711
0.733750 0.847100 0.814599
0.871902 0.844515 0.810896
0.977402 0.843578 0.809541
1.000000 0.843538 0.808581
0.000000 0.960561 0.824953
0.068447 0.960020 0.822585
0.203069 0.959038 0.819133
0.375505 0.957375 0.814317
0.565304 0.955034 0.808522
0.730174 0.952581 0.803081
0.868303 0.950165 0.798561
0.977536 0.948039 0.798630
1.000000 0.947915 0.799733
0.000000 1.000000 0.819128
0.068337 1.000000 0.816633
0.202971 1.000000 0.813029
0.375334 1.000000 0.808054
0.564947 1.000000 0.802127
0.729572 1.000000 0.796607
0.867543 1.000000 0.792163
0.977516 1.000000 0.789762
1.000000 1.000000 0.789831
0.000000 0.010254 1.000000
0.092723 0.008529 1.000000
0.229516 0.006231 1.000000
0.403025 0.003349 1.000000
0.591857 0.000254 1.000000
0.754126 0.000000 1.000000
0.888722 0.000000 1.000000
0.995634 0.000000 0.997887
1.000000 0.000000 0.995852
0.000000 0.104141 1.000000
0.089867 0.102227 1.000000
0.227081 0.099843 1.000000
0.401170 0.096888 1.000000
0.590639 0.093714 1.000000
0.753457 0.091020 0.997924
0.888510 0.088810 0.993946
0.995773 0.087075 0.990791
1.000000 0.086225 0.988663
0.000000 0.231028 1.000000
0.086183 0.229311 1.000000
0.223147 0.226748 1.000000
0.398018 0.223687 0.998524
0.588351 0.220404 0.992761
0.751915 0.217616 0.987850
0.887589 0.215326 0.983805
0.995285 0.213553 0.980536
1.000000 0.212801 0.978363
0.000000 0.392021 0.987862
0.081747 0.390560 0.987431
0.218178 0.388338 0.986593
0.392928 0.385112 0.984941
0.584364 0.381689 0.979054
0.748881 0.378779 0.974034
0.885349 0.376388 0.969898
0.993567 0.374576 0.966456
1.000000 0.373931 0.964338
0.000000 0.570590 0.970432
0.077130 0.569413 0.969535
0.212964 0.567574 0.968065
0.386955 0.564818 0.965765
0.578494 0.561296 0.962469
0.744075 0.558250 0.957320
0.881428 0.555745 0.953076
0.990253 0.553879 0.949475
1.000000 0.553340 0.947537
0.000000 0.725831 0.955730
0.073370 0.724905 0.954421
0.208678 0.723400 0.952392
0.382011 0.721066 0.949378
0.572835 0.717981 0.945532
0.738638 0.714893 0.941574
0.876764 0.712289 0.937231
0.986193 0.710343 0.933579
1.000000 0.709899 0.931868
0.000000 0.855715 0.943747
0.070400 0.854998 0.942088
0.205265 0.853775 0.939586
0.378043 0.851796 0.935966
0.568271 0.849096 0.931456
0.733570 0.846319 0.927103
0.871952 0.843705 0.923086
0.981952 0.841664 0.919486
1.000000 0.841334 0.917986
0.000000 0.960078 0.934318
0.068222 0.959510 0.932359
0.202811 0.958491 0.929455
0.375203 0.956781 0.925335
0.564954 0.954389 0.920295
0.729783 0.951892 0.915503
0.867742 0.949513 0.911206
0.977489 0.947510 0.908607
1.000000 0.947452 0.907996
0.000000 1.000000 0.928519
0.068130 1.000000 0.926411
0.202732 1.000000 0.923327
0.375056 1.000000 0.919012
0.564625 1.000000 0.913803
0.729213 1.000000 0.908900
0.866915 1.000000 0.904536
0.977099 1.000000 0.901174
1.000000 1.000000 0.900837
0.000000 0.009983 1.000000
0.092695 0.008251 1.000000
0.229478 0.005948 1.000000
0.402974 0.003060 1.000000
0.591793 0.000000 1.000000
0.754050 0.000000 1.000000
0.888636 0.000000 1.000000
0.995541 0.000000 1.000000
1.000000 0.000000 1.000000
0.000000 0.103855 1.000000
0.089825 0.101932 1.000000
0.227010 0.099549 1.000000
0.401059 0.096597 1.000000
0.590481 0.093426 1.000000
0.753256 0.090736 1.000000
0.888273 0.088529 1.000000
0.995520 0.086792 1.000000
1.000000 0.085882 1.000000
0.000000 0.230722 1.000000
0.086140 0.228992 1.000000
0.223071 0.226424 1.000000
0.397860 0.223377 1.000000
0.588097 0.220111 1.000000
0.751573 0.217339 1.000000
0.887171 0.215065 1.000000
0.994880 0.213273 1.000000
1.000000 0.212419 1.000000
0.000000 0.391694 1.000000
0.081713 0.390207 1.000000
0.218148 0.387967 1.000000
0.392796 0.384745 1.000000
0.584064 0.381358 1.000000
0.748428 0.378483 1.000000
0.884763 0.376122 1.000000
0.993058 0.374262 1.000000
1.000000 0.373496 1.000000
0.000000 0.570241 1.000000
0.077123 0.569023 1.000000
0.213008 0.567144 1.000000
0.386949 0.564367 1.000000
0.578276 0.560868 1.000000
0.743623 0.557878 1.000000
0.880774 0.555422 1.000000
0.989717 0.553487 1.000000
1.000000 0.552843 1.000000
0.000000 0.725464 1.000000
0.073398 0.724479 1.000000
0.208807 0.722915 1.000000
0.382145 0.720536 1.000000
0.572805 0.717447 1.000000
0.738331 0.714406 1.000000
0.876206 0.711874 1.000000
0.985730 0.709877 1.000000
1.000000 0.709375 1.000000
0.000000 0.855332 1.000000
0.070467 0.854542 1.000000
0.205480 0.853243 1.000000
0.378316 0.851210 1.000000
0.568437 0.848497 1.000000
0.733499 0.845747 1.000000
0.871591 0.843189 1.000000
0.981594 0.841134 1.000000
1.000000 0.840760 1.000000
0.000000 0.959697 1.000000
0.068239 0.959071 1.000000
0.202929 0.957991 1.000000
0.375357 0.956228 1.000000
0.565038 0.953808 1.000000
0.729727 0.951308 1.000000
0.867522 0.948940 0.997430
0.977724 0.946877 0.994129
1.000000 0.946608 0.992803
0.000000 1.000000 1.000000
0.067972 1.000000 1.000000
0.202551 1.000000 1.000000
0.374844 1.000000 1.000000
0.564380 1.000000 0.999142
0.728940 1.000000 0.994712
0.866619 1.000000 0.990738
0.976709 1.000000 0.987412
1.000000 1.000000 0.986874
